!!!!SEGMENT: pl-kk--kk-i-328--009_constanzi--beatus-vir-gloria-patri.krn
!!!cenid: 17xx:2148
!!!COM: Constanzi
!!!COM-rismID: pe50046616
!!!CDT:
!!!CNT:
!!!OPR: Beatus vir
!!!OTL: Gloria Patri
!!!OMV: 009
!!!PDT:
!!!AGN: Sacred
!!!SMS-siglum: PL-Kk
!!!SMS-shelfmark: Kk.I.328
!!!SMS-shelfwork: 001-009 M
!!!SMS-variant:
!!!SMS-altvar:
!!!NIFC-rismSourceID: 1001145915
!!!NIFC-islandoraID: pl-kk:5487
!!!URL-pdf-islandora: https://repozytorium.nifc.pl/islandora/object/pl-kk%3A5487/datastream/PDF/view
!!!URL-scan: https://polish.musicsources.pl/pl/lokalizacje/galeria/rekopisy/5947 @EN{Scan on Polish Music Sources Website} @PL{Skany w portalu Dziedzictwo Muzyki Polskiej w otwartym dostępie}
!!!ONB-nifc: UWAGA: części Beatus vir: 1. Beatus vir, 2. Potens in terra, 3. Gloria et divitiae, 4. Exortum est 5. Iucundus homo, 6. In memoria, 7. Paratum cor eius, 8. Peccator videbit, 9. Desiderius, 10. Gloria patri
!!!AIN: 2 alto 1 bass 1 organ 2 soprn 1 tenor
!!!key: C
**kern	**fba	**kern	**text	**kern	**text	**kern	**text	**kern	**text	**kern	**text	**kern	**text
*part7	*part7	*part6	*part6	*part5	*part5	*part4	*part4	*part3	*part3	*part2	*part2	*part1	*part1
*staff7	*staff7	*staff6	*staff6	*staff5	*staff5	*staff4	*staff4	*staff3	*staff3	*staff2	*staff2	*staff1	*staff1
*	*	*group2	*	*group2	*	*group2	*	*group2	*	*group1	*	*group1	*
*I"Organo	*	*I"Baſso di Ripieno	*	*I"Tenore di Ripieno	*	*I"Alto di Ripieno	*	*I"Canto di ripieno	*	*I"Alto à 2.di Concerto	*	*I"Canto à 2.di concerto	*
*mI"Organo	*	*mI"Basso	*	*mI"Tenore	*	*mI"Alto	*	*mI"Soprano	*	*mI"Alto solo	*	*mI"Soprano solo	*
*I'org	*	*I'B rip	*	*I'T rip	*	*I'A rip	*	*I'S rip	*	*I'A conc	*	*I'S conc	*
*Iorgan	*	*Ibass	*	*Itenor	*	*Ialto	*	*Isoprn	*	*Ialto	*	*Isoprn	*
*ICklav	*	*ICvox	*	*ICvox	*	*ICvox	*	*ICvox	*	*ICvox	*	*ICvox	*
*IGcont	*	*IGcoro	*	*IGcoro	*	*IGcoro	*	*IGcoro	*	*	*	*	*
*clefF4	*	*clefF4	*	*clefC4	*	*clefC3	*	*clefC1	*	*clefC3	*	*clefC1	*
*	*	*	*	*mclefGv2	*	*mclefG2	*	*mclefG2	*	*mclefG2	*	*mclefG2	*
*k[]	*	*k[]	*	*k[]	*	*k[]	*	*k[]	*	*k[f#]	*	*k[]	*
*C:	*	*C:	*	*C:	*	*C:	*	*C:	*	*C:	*	*C:	*
*M4/4	*	*M4/4	*	*M4/4	*	*M4/4	*	*M4/4	*	*M4/4	*	*	*
*met(c)	*	*met(c)	*	*met(c)	*	*met(c)	*	*met(c)	*	*met(c)	*	*	*
*mmet(c)	*	*mmet(c)	*	*mmet(c)	*	*mmet(c)	*	*mmet(c)	*	*mmet(c)	*	*	*
!LO:MO:mod=*null:null	!	!LO:MO:mod=*null:null	!	!LO:MO:mod=*null:null	!	!LO:MO:mod=*null:null	!	!LO:MO:mod=*null:null	!	!LO:MO:mod=*null:null	!	!LO:MO:mod=*null:null	!
*all\right	*	*all\right	*	*all\right	*	*all\right	*	*all\right	*	*all\right	*	*all\right	*
=1	=1	=1	=1	=1	=1	=1	=1	=1	=1	=1	=1	=1	=1
!	!	!	!	!	!	!	!	!	!	!LO:TX:b:t=5:mod=	!	!	!
!LO:TX:a:t=Tutti:mod=	!	!LO:TX:a:t=Tutti:mod=	!	!LO:TX:a:t=Tutti:mod=	!	!LO:TX:a:t=Tutti:mod=	!	!LO:TX:a:t=Tutti	!	!LO:TX:a:t=Solo:mod=	!	!LO:TX:a:t=Gloria Patri Tacet:mod=	!
8c\L	.	8c\L	Glo-	4c\	Glo-	4g\	Glo-	8ee\L	Glo-	00r	.	1ryy	.
8B\	.	8B\J	.	.	.	.	.	8dd\J	.	.	.	.	.
8c\	.	8c\	-ri-	8c\	-ri-	8g\	-ri-	8ee\	-ri-	.	.	.	.
8B\J	.	8B\	-a	8c\	-a	8g\	-a	8dd\	-a	.	.	.	.
!	!	!	!	!	!	!	!	!	!LO:MO:mod=Pa-	!	!	!	!
4c\	.	4c\	Pa-	4c\	pa-	4g\	Pa-	4ee\	pa-	.	.	.	.
4C/	.	4C/	-tri	4c\	-tri	4g\	-tri	4ee\	-tri	.	.	.	.
=2	=2	=2	=2	=2	=2	=2	=2	=2	=2	=2	=2	=2	=2
!LO:MO:mod=*null:null	!	!LO:MO:mod=*null:null	!	!LO:MO:mod=*null:null	!	!LO:MO:mod=*null:null	!	!LO:MO:mod=*null:null	!	!	!	!	!
*2\right	*	*2\right	*	*2\right	*	*2\right	*	*2\right	*	*	*	*	*
!	!	!	!	!	!	!	!	!	!LO:MO:mod=Pa-	!	!	!	!
2c\	.	2c\	Pa-	2e\	Pa-	2g\	Pa-	2cc\	pa-	.	.	1ryy	.
4F\	.	4F\	-tri	4f\	-tri	4a\	-tri	4cc\	-tri	.	.	.	.
4A\	.	4A\	et	4f\	et	4fn\	et	4cc\	et	.	.	.	.
!	!	!	!	!LO:LB:g=original	!	!LO:LB:g=original	!	!	!	!	!	!	!
=3	=3	=3	=3	=3	=3	=3	=3	=3	=3	=3	=3	=3	=3
!	!	!	!LO:MO:mod=Fi-	!	!LO:MO:mod=Fi-	!	!LO:MO:mod=Fi-	!	!LO:MO:mod=Fi-	!	!	!	!
2G\	6 4	4.G\	fi-	4.d\	fi-	4.g\	fi-	4cc\	fi-	.	.	1ryy	.
.	5 3	.	.	.	.	.	.	4b\	-li-	.	.	.	.
.	.	8G\	-li-	8d\	-li-	8g\	-li-	.	.	.	.	.	.
!	!	!LO:LB:g=original	!	!	!	!	!	!	!	!	!	!	!
4C/	.	4C/	-o	4e\	-o	4g\	-o	4cc\	-o	.	.	.	.
[4c\	.	[4c\	et	4r	.	[4g\	et	[4ee\	et	.	.	.	.
!LO:LB:g=original	!	!	!	!	!	!	!	!LO:LB:g=original	!	!	!	!	!
=4	=4	=4	=4	=4	=4	=4	=4	=4	=4	=4	=4	=4	=4
8c\L]	.	8c\]	.	2r	.	8g\]	.	8ee\]	.	.	.	1ryy	.
!	!	!	!LO:MO:mod=Spi-	!	!	!	!LO:MO:mod=Spi-	!	!LO:MO:mod=Spi-	!	!	!	!
8B\	.	8B\	spi-	.	.	8g\	spi-	8ee\	spi-	.	.	.	.
8A\	.	8A\	-ri-	.	.	8cc\	-ri-	8ee\	-ri-	.	.	.	.
8G\J	.	8G\	-tui	.	.	8b\	-tu-	8ee\	-tu-	.	.	.	.
!	!	!	!LO:MO:mod=San-	!	!	!	!	!	!	!	!	!	!
4F#X\	7	4F#X\	san-	4c\	et	4a\	-i	4ee\	-i	.	.	.	.
!	!	!	!	!	!LO:MO:mod=Fi-	!	!LO:MO:mod=San-	!	!LO:MO:mod=San-	!	!	!	!
4G\	.	4G\	.	[4B\	fi-	4b\	san-	[4dd\	san-	.	.	.	.
=5	=5	=5	=5	=5	=5	=5	=5	=5	=5	=5	=5	=5	=5
2E\	7	2E\	.	4B\]	.	2g\	.	4dd\]	.	1r	.	1ryy	.
.	#6	.	.	4c#X\	-li-	.	.	4cc#X\	.	.	.	.	.
4D\	#3	4D\	-cto	4A\	-o	4f#X\	-cto	4dd\	-cto	.	.	.	.
4r	.	4r	.	4r	.	4r	.	4r	.	.	.	.	.
!	!	!LO:LB:g=original	!	!LO:LB:g=original	!	!LO:LB:g=original	!	!	!	!	!	!	!
=6	=6	=6	=6	=6	=6	=6	=6	=6	=6	=6	=6	=6	=6
!!!key: G
*k[f#]	*	*k[]	*	*k[]	*	*k[]	*	*k[]	*	*k[f#]	*	*k[]	*
*	*	*mk[f#]	*	*mk[f#]	*	*mk[f#]	*	*mk[f#]	*	*	*	*	*
!	!	!	!	!	!	!	!	!	!	!LO:MO:mod=!LO&colon;TX&colon;a&colon;t=Solo	!	!	!
!LO:TX:a:t=Alto Solo:mod=	!	!LO:TX:b:t=8:mod=	!	!LO:TX:b:t=8	!	!LO:TX:b:t=8:mod=	!	!LO:TX:b:t=8:mod=	!	!null	!	!	!
8G\L	.	00r	.	00r	.	00r	.	00r	.	16d\LL	Glo-	1ryy	.
.	.	.	.	.	.	.	.	.	.	16g\JJ	.	.	.
8G\	.	.	.	.	.	.	.	.	.	16g\	-ri-	.	.
.	.	.	.	.	.	.	.	.	.	16b\	-a	.	.
8G\	.	.	.	.	.	.	.	.	.	[4b\	Pa-	.	.
8G\J	.	.	.	.	.	.	.	.	.	.	.	.	.
8C/L	.	.	.	.	.	.	.	.	.	8b\L]	.	.	.
8C/	.	.	.	.	.	.	.	.	.	16a\L	.	.	.
.	.	.	.	.	.	.	.	.	.	16b\JJ	.	.	.
.	.	.	.	.	.	.	.	.	.	8qqdd/	.	.	.
8C/	.	.	.	.	.	.	.	.	.	8cc\	.	.	.
8C/J	.	.	.	.	.	.	.	.	.	16b\	-tri	.	.
.	.	.	.	.	.	.	.	.	.	16a\	et	.	.
!LO:LB:g=original	!	!	!	!	!	!	!	!	!	!LO:PB:g=original	!	!	!
=7	=7	=7	=7	=7	=7	=7	=7	=7	=7	=7	=7	=7	=7
.	.	.	.	.	.	.	.	.	.	8qqg/	.	.	.
*	*below	*	*	*	*	*	*	*	*	*	*	*	*
8C/L	#	.	.	.	.	.	.	.	.	8.f#\	fi-	1ryy	.
8C/	4	.	.	.	.	.	.	.	.	.	.	.	.
.	.	.	.	.	.	.	.	.	.	16g\	-li-	.	.
8BB/	.	.	.	.	.	.	.	.	.	8g\	-o	.	.
8GG/J	.	.	.	.	.	.	.	.	.	[8b\	et	.	.
*	*above	*	*	*	*	*	*	*	*	*	*	*	*
8D\L	6 4	.	.	.	.	.	.	.	.	8b\]	.	.	.
!	!	!	!	!	!	!	!	!	!	!	!LO:MO:mod=Spi-	!	!
8D\	.	.	.	.	.	.	.	.	.	16a\LL	spi-	.	.
.	.	.	.	.	.	.	.	.	.	16b\JJ	.	.	.
!	!	!	!	!	!	!	!	!	!	!LO:MO:mod=!null:null	!	!	!
!	!	!	!	!	!	!	!	!	!	!LO:N:vis=8.	!	!	!
.	.	.	.	.	.	.	.	.	.	8qqdd/	.	.	.
8D\	.	.	.	.	.	.	.	.	.	8cc\	-ri-	.	.
.	5 #3	.	.	.	.	.	.	.	.	.	.	.	.
8D\J	.	.	.	.	.	.	.	.	.	16b\	-tu-	.	.
.	.	.	.	.	.	.	.	.	.	16a\	-i	.	.
=8	=8	=8	=8	=8	=8	=8	=8	=8	=8	=8	=8	=8	=8
*	*	*	*	*	*	*	*	*	*	*Xtuplet	*	*	*
!	!	!	!	!	!	!	!	!	!	!LO:TUP:a:problem=klamra łukowa	!LO:MO:mod=San-	!	!
8G\L	.	.	.	.	.	.	.	.	.	24b\LL	san-	1ryy	.
.	.	.	.	.	.	.	.	.	.	24a\	.	.	.
.	.	.	.	.	.	.	.	.	.	24g\JJ	.	.	.
8G\	.	.	.	.	.	.	.	.	.	4g\	.	.	.
8G\	.	.	.	.	.	.	.	.	.	.	.	.	.
8G\J	.	.	.	.	.	.	.	.	.	16b\LL	.	.	.
.	.	.	.	.	.	.	.	.	.	16dd\JJ	.	.	.
!	!	!	!	!	!	!	!	!	!	!LO:LB:g=original	!	!	!
!	!	!	!	!	!	!	!	!	!	!LO:TUP:a:problem=klamra łukowa	!	!	!
8F#X\L	.	.	.	.	.	.	.	.	.	24a\LL	.	.	.
.	.	.	.	.	.	.	.	.	.	24g\	.	.	.
.	.	.	.	.	.	.	.	.	.	24f#\JJ	.	.	.
8F#\	.	.	.	.	.	.	.	.	.	4f#\	.	.	.
8F#\	.	.	.	.	.	.	.	.	.	.	.	.	.
8F#\J	.	.	.	.	.	.	.	.	.	16a\LL	.	.	.
.	.	.	.	.	.	.	.	.	.	16dd\JJ	.	.	.
=9	=9	=9	=9	=9	=9	=9	=9	=9	=9	=9	=9	=9	=9
!	!	!	!	!	!	!	!	!	!	!LO:TUP:a:problem=klamra łukowa	!	!	!
8E\L	#6	.	.	.	.	.	.	.	.	24g\LL	.	1ryy	.
.	.	.	.	.	.	.	.	.	.	24f#\	.	.	.
.	.	.	.	.	.	.	.	.	.	24e\JJ	.	.	.
8E\	.	.	.	.	.	.	.	.	.	4e\	.	.	.
8E\	.	.	.	.	.	.	.	.	.	.	.	.	.
8E\J	.	.	.	.	.	.	.	.	.	16e\LL	.	.	.
.	.	.	.	.	.	.	.	.	.	16g\JJ	.	.	.
8D\L	#	.	.	.	.	.	.	.	.	24f#\LL	.	.	.
.	.	.	.	.	.	.	.	.	.	24e\	.	.	.
.	.	.	.	.	.	.	.	.	.	24d\J	.	.	.
8D\	.	.	.	.	.	.	.	.	.	[<8d\J	.	.	.
8D\	.	.	.	.	.	.	.	.	.	16d\LL]	.	.	.
.	.	.	.	.	.	.	.	.	.	16f#\	.	.	.
8D\J	.	.	.	.	.	.	.	.	.	16a\	.	.	.
.	.	.	.	.	.	.	.	.	.	16f#\JJ	.	.	.
!LO:LB:g=original	!	!	!	!	!	!	!	!	!	!LO:LB:g=original	!	!	!
=10	=10	=10	=10	=10	=10	=10	=10	=10	=10	=10	=10	=10	=10
*	*	*	*	*	*	*	*	*	*	*tuplet	*	*	*
!	!	!	!	!	!	!	!	!	!	!LO:TUP:a:problem=klamra łukowa	!	!	!
8D\L	6 4	00r	.	00r	.	00r	.	00r	.	24g\LL	.	1ryy	.
.	.	.	.	.	.	.	.	.	.	24f#\	.	.	.
.	.	.	.	.	.	.	.	.	.	24e\J	.	.	.
8D\	.	.	.	.	.	.	.	.	.	[<8d\J	.	.	.
8D\	.	.	.	.	.	.	.	.	.	16d\LL]	.	.	.
.	.	.	.	.	.	.	.	.	.	16g\	.	.	.
8D\J	.	.	.	.	.	.	.	.	.	16b\	.	.	.
.	.	.	.	.	.	.	.	.	.	16g\JJ	.	.	.
*	*	*	*	*	*	*	*	*	*	*Xtuplet	*	*	*
!	!	!	!	!	!	!	!	!	!	!LO:TUP:a:problem=klamra łukowa	!	!	!
!	!	!	!	!	!	!	!	!	!	!LO:MO:mod=!null:null	!	!	!
!	!	!	!	!	!	!	!	!	!	!LO:N:vis=12	!	!	!
8D\L	.	.	.	.	.	.	.	.	.	24a\LL	.	.	.
.	.	.	.	.	.	.	.	.	.	24f#\	.	.	.
.	.	.	.	.	.	.	.	.	.	24e\J	.	.	.
8D\	5 3	.	.	.	.	.	.	.	.	[<8d\J	.	.	.
8D\	.	.	.	.	.	.	.	.	.	16d\LL]	.	.	.
.	.	.	.	.	.	.	.	.	.	16a\	.	.	.
8D\J	.	.	.	.	.	.	.	.	.	16cc\	.	.	.
.	.	.	.	.	.	.	.	.	.	16a\JJ	.	.	.
=11	=11	=11	=11	=11	=11	=11	=11	=11	=11	=11	=11	=11	=11
8G\L	.	.	.	.	.	.	.	.	.	16.b\LL	.	1ryy	.
.	.	.	.	.	.	.	.	.	.	32b\JJk	.	.	.
8G\	.	.	.	.	.	.	.	.	.	32b\LLL	.	.	.
.	.	.	.	.	.	.	.	.	.	32a\	.	.	.
.	.	.	.	.	.	.	.	.	.	32b\	.	.	.
.	.	.	.	.	.	.	.	.	.	32cc\JJJ	.	.	.
8D\	.	.	.	.	.	.	.	.	.	16.a\LL	.	.	.
.	.	.	.	.	.	.	.	.	.	32a\JJk	.	.	.
8D\J	.	.	.	.	.	.	.	.	.	32a\LLL	.	.	.
.	.	.	.	.	.	.	.	.	.	32g\	.	.	.
.	.	.	.	.	.	.	.	.	.	32a\	.	.	.
.	.	.	.	.	.	.	.	.	.	32b\JJJ	.	.	.
!	!	!	!	!	!	!	!	!	!	!LO:LB:g=original	!	!	!
8GG/L	.	.	.	.	.	.	.	.	.	16.g\LL	.	.	.
.	.	.	.	.	.	.	.	.	.	32b\JJk	.	.	.
8GG/	.	.	.	.	.	.	.	.	.	32b\LLL	.	.	.
.	.	.	.	.	.	.	.	.	.	32a\	.	.	.
.	.	.	.	.	.	.	.	.	.	32b\	.	.	.
.	.	.	.	.	.	.	.	.	.	32cc\JJJ	.	.	.
8D/	.	.	.	.	.	.	.	.	.	16.a\LL	.	.	.
.	.	.	.	.	.	.	.	.	.	32a\JJk	.	.	.
8D/J	.	.	.	.	.	.	.	.	.	32a\LLL	.	.	.
.	.	.	.	.	.	.	.	.	.	32g\	.	.	.
.	.	.	.	.	.	.	.	.	.	32a\	.	.	.
.	.	.	.	.	.	.	.	.	.	32b\JJJ	.	.	.
=12	=12	=12	=12	=12	=12	=12	=12	=12	=12	=12	=12	=12	=12
8BB/L	.	.	.	.	.	.	.	.	.	16g\LL	.	1ryy	.
.	.	.	.	.	.	.	.	.	.	16g\	.	.	.
8BB/	.	.	.	.	.	.	.	.	.	16a\	.	.	.
.	.	.	.	.	.	.	.	.	.	16b\JJ	.	.	.
8C/	.	.	.	.	.	.	.	.	.	16e\LL	.	.	.
.	.	.	.	.	.	.	.	.	.	16a\	.	.	.
8C/J	.	.	.	.	.	.	.	.	.	16cc\	.	.	.
.	.	.	.	.	.	.	.	.	.	16a\JJ	.	.	.
8D\L	.	.	.	.	.	.	.	.	.	8.g\L	.	.	.
8D\	4	.	.	.	.	.	.	.	.	.	.	.	.
!	!	!	!	!	!	!	!	!	!	!LO:TUP:a:problem=klamra łukowa	!	!	!
.	.	.	.	.	.	.	.	.	.	48f#\LL	.	.	.
.	.	.	.	.	.	.	.	.	.	48g\	.	.	.
.	.	.	.	.	.	.	.	.	.	48a\JJJ	.	.	.
8D\	3	.	.	.	.	.	.	.	.	4a\	.	.	.
8D\J	.	.	.	.	.	.	.	.	.	.	.	.	.
!	!	!	!	!	!	!	!	!	!	!LO:LB:g=original	!	!	!
=13	=13	=13	=13	=13	=13	=13	=13	=13	=13	=13	=13	=13	=13
8E\L	.	.	.	.	.	.	.	.	.	8g\	-cto	1ryy	.
8E\	.	.	.	.	.	.	.	.	.	8cc\	Spi-	.	.
8D\	.	.	.	.	.	.	.	.	.	8b\	-ri-	.	.
8C#X\J	.	.	.	.	.	.	.	.	.	8a\	-tu-	.	.
!LO:LB:g=original	!	!	!	!	!	!	!	!	!	!	!	!	!
2D\	4	.	.	.	.	.	.	.	.	4g\	-i	.	.
.	3	.	.	.	.	.	.	.	.	4a\	San-	.	.
=14	=14	=14	=14	=14	=14	=14	=14	=14	=14	=14	=14	=14	=14
!	!	!	!	!	!	!	!	!LO:MO:mod=!LO&colon;TX&colon;a&colon;t=Tutti	!	!	!	!	!
!LO:TX:a:t=Tutti:mod=	!	!	!	!	!	!	!	!null	!	!	!	!	!
8G\L	.	8G\	et	4.d\	et	4.g\	et	4.b\	et	4g\	-cto	1ryy	.
!	!	!	!LO:MO:mod=Spi-	!	!	!	!	!	!	!	!	!	!
16B\L	.	16B\LL	spi-	.	.	.	.	.	.	.	.	.	.
16A\JJ	.	16A\JJ	.	.	.	.	.	.	.	.	.	.	.
16G\LL	.	16G\LL	-ri-	.	.	.	.	.	.	4r	.	.	.
16F#X\	.	16F#X\JJ	.	.	.	.	.	.	.	.	.	.	.
!	!	!	!	!	!LO:MO:mod=Spi-	!	!LO:MO:mod=Spi-	!	!	!	!	!	!
16E\	.	16E\	-tu-	8d\	spi-	8g\	spi-	8b\	Spi-	.	.	.	.
16D\JJ	.	16D\	-i	.	.	.	.	.	.	.	.	.	.
!	!	!LO:TX:t=P:problem=mixed beam	!LO:MO:mod=San-	!	!	!	!	!	!	!	!	!	!
8C\L	.	8C/L	san-	4.e\	-ri-	4.g\	-ri-	4.cc\	-ri-	2r	.	.	.
16c\L	.	16c\L	.	.	.	.	.	.	.	.	.	.	.
16B\JJ	.	16B\JJ	.	.	.	.	.	.	.	.	.	.	.
16A\LL	.	16A\LL	.	.	.	.	.	.	.	.	.	.	.
16G\	.	16G\	.	.	.	.	.	.	.	.	.	.	.
16F#X\	.	16F#X\	.	8e\	-tui	16a\	-tu-	8cc\	-tui	.	.	.	.
16E\JJ	.	16E\JJ	.	.	.	16g\	-i	.	.	.	.	.	.
!	!	!	!	!	!	!	!	!LO:LB:g=original	!	!	!	!	!
=15	=15	=15	=15	=15	=15	=15	=15	=15	=15	=15	=15	=15	=15
!	!	!	!	!	!LO:MO:mod=San-	!	!LO:MO:mod=San-	!	!	!LO:TX:b:t=1:mod=	!	!	!
8D\L	#3	8D\L	.	4d\	san-	8f#X\	san-	8cc\L	San-	1r	.	1ryy	.
8G\	.	8G\	.	.	.	4g\	.	8b\J	.	.	.	.	.
8C\	.	8C\	.	8e\L	.	.	.	4a\	.	.	.	.	.
8D\J	#3	8D\J	.	8d\J	.	8f#\	.	.	.	.	.	.	.
4GG/	.	4GG/	-cto	4d\	-cto	4g\	-cto	4g\	-cto	.	.	.	.
4r	.	4r	.	4r	.	4r	.	4r	.	.	.	.	.
!LO:LB:g=original	!	!LO:PB:g=original	!	!LO:LB:g=original	!	!LO:PB:g=original	!	!	!	!LO:LB:g=original	!	!	!
=16||	=16||	=16||	=16||	=16||	=16||	=16||	=16||	=16||	=16||	=16||	=16||	=16||	=16||
!!!OMD:
!!!OMD-mod: Allegro
!!!key: D
*k[f#c#]	*	*k[f#c#]	*	*k[c#f#]	*	*k[f#c#]	*	*k[c#f#]	*	*k[f#c#]	*	*k[c#f#]	*
*	*	*	*	*mk[f#c#]	*	*	*	*mk[f#c#]	*	*	*	*mk[f#c#]	*
*M2/4	*	*M2/4	*	*M2/4	*	*M2/4	*	*M2/4	*	*M2/4	*	*M2/4	*
!LO:TX:a:t=à 2.e\nRitor.lo:mod=	!	!	!	!LO:TX:a:t=Tutti:mod=	!	!LO:TX:a:t=Tutti:mod=	!	!LO:TX:a:t=Tutti:mod=	!	!LO:TX:a:B:t=Allo:mod=	!	!LO:TX:a:B:t=Allo:mod=	!
!LO:TX:a:B:t=Allo:mod=	!	!LO:TX:b:t=48:mod=	!	!LO:TX:b:t=48:mod=	!	!LO:TX:a:B:t=Allo:mod=	!	!LO:TX:a:B:t=Allo:mod=	!	!LO:TX:b:t=27:mod=	!	!LO:TX:b:t=6:mod=	!
!LO:TX:b:t=Sicut erat\nC.o:mod=	!LO:TX:a:t=Tutti:mod=	!	!LO:TX:a:B:t=Allo:mod=	!	!LO:TX:b:t=48:mod=	!	!LO:TX:b:t=48:mod=	!	!LO:TX:a:t=à 2.ae:mod=	!	!LO:TX:a:t=à 2.ae:mod=	!	!
4D\	.	0r	.	0r	.	0r	.	0r	.	0r	.	0r	.
4A\	.	.	.	.	.	.	.	.	.	.	.	.	.
=17	=17	=17	=17	=17	=17	=17	=17	=17	=17	=17	=17	=17	=17
8d\L	.	.	.	.	.	.	.	.	.	.	.	.	.
8A\	.	.	.	.	.	.	.	.	.	.	.	.	.
8B\	.	.	.	.	.	.	.	.	.	.	.	.	.
8F#\J	.	.	.	.	.	.	.	.	.	.	.	.	.
=18	=18	=18	=18	=18	=18	=18	=18	=18	=18	=18	=18	=18	=18
4G\	.	.	.	.	.	.	.	.	.	.	.	.	.
4A\	.	.	.	.	.	.	.	.	.	.	.	.	.
=19	=19	=19	=19	=19	=19	=19	=19	=19	=19	=19	=19	=19	=19
8F#\L	.	.	.	.	.	.	.	.	.	.	.	.	.
8D\	.	.	.	.	.	.	.	.	.	.	.	.	.
8d\	.	.	.	.	.	.	.	.	.	.	.	.	.
8F#\J	.	.	.	.	.	.	.	.	.	.	.	.	.
=20	=20	=20	=20	=20	=20	=20	=20	=20	=20	=20	=20	=20	=20
8G\L	.	0r	.	0r	.	0r	.	0r	.	0r	.	1r	.
16F#\L	.	.	.	.	.	.	.	.	.	.	.	.	.
16E\JJ	.	.	.	.	.	.	.	.	.	.	.	.	.
!LO:TX:t=P:problem=mixed beam	!	!	!	!	!	!	!	!	!	!	!	!	!
8A\L	.	.	.	.	.	.	.	.	.	.	.	.	.
8AA/J	.	.	.	.	.	.	.	.	.	.	.	.	.
!LO:LB:g=original	!	!	!	!	!	!	!	!	!	!	!	!	!
=21	=21	=21	=21	=21	=21	=21	=21	=21	=21	=21	=21	=21	=21
8D\L	.	.	.	.	.	.	.	.	.	.	.	.	.
8AA\J	.	.	.	.	.	.	.	.	.	.	.	.	.
!LO:MO:mod=!null:null	!	!	!	!	!	!	!	!	!	!	!	!	!
!LO:N:vis=4.	!	!	!	!	!	!	!	!	!	!	!	!	!
4DD/	.	.	.	.	.	.	.	.	.	.	.	.	.
=22	=22	=22	=22	=22	=22	=22	=22	=22	=22	=22	=22	=22	=22
!	!	!	!	!	!	!	!	!	!	!	!	!LO:MO:mod=!LO&colon;TX&colon;a&colon;t=Solo	!
!	!	!	!	!	!	!	!	!	!	!	!	!null	!
4d\	.	.	.	.	.	.	.	.	.	.	.	4d/	Si-
4c#\	.	.	.	.	.	.	.	.	.	.	.	4a\	-cut
=23	=23	=23	=23	=23	=23	=23	=23	=23	=23	=23	=23	=23	=23
8B\L	.	.	.	.	.	.	.	.	.	.	.	8dd\	e-
8F#\	.	.	.	.	.	.	.	.	.	.	.	8a\	-rat
8G\	.	.	.	.	.	.	.	.	.	.	.	8b\	in
8D\J	.	.	.	.	.	.	.	.	.	.	.	8f#/	prin-
=24	=24	=24	=24	=24	=24	=24	=24	=24	=24	=24	=24	=24	=24
8E\L	.	0r	.	0rc	.	0r	.	0r	.	0r	.	4g\	-ci-
8D\	.	.	.	.	.	.	.	.	.	.	.	.	.
8C#\	.	.	.	.	.	.	.	.	.	.	.	4a\	-pi-
8AA\J	.	.	.	.	.	.	.	.	.	.	.	.	.
!	!	!	!	!	!	!	!	!	!	!	!	!LO:PB:g=original	!
=25	=25	=25	=25	=25	=25	=25	=25	=25	=25	=25	=25	=25	=25
8D\L	.	.	.	.	.	.	.	.	.	.	.	4d/	-o
16E\L	.	.	.	.	.	.	.	.	.	.	.	.	.
16F#\JJ	.	.	.	.	.	.	.	.	.	.	.	.	.
16G\LL	.	.	.	.	.	.	.	.	.	.	.	4r	.
16A\	.	.	.	.	.	.	.	.	.	.	.	.	.
16B\	.	.	.	.	.	.	.	.	.	.	.	.	.
16c#\JJ	.	.	.	.	.	.	.	.	.	.	.	.	.
!LO:LB:g=original	!	!	!	!	!	!	!	!	!	!	!	!	!
=26	=26	=26	=26	=26	=26	=26	=26	=26	=26	=26	=26	=26	=26
8d\L	.	.	.	.	.	.	.	.	.	.	.	2d/	et
8d\	.	.	.	.	.	.	.	.	.	.	.	.	.
8d\	.	.	.	.	.	.	.	.	.	.	.	.	.
8d\J	.	.	.	.	.	.	.	.	.	.	.	.	.
=27	=27	=27	=27	=27	=27	=27	=27	=27	=27	=27	=27	=27	=27
!	!	!	!	!	!	!	!	!	!	!	!	!LO:MO:mod=*null:null	!
*	*	*	*	*	*	*	*	*	*	*	*	*2\right	*
8c#\L	.	.	.	.	.	.	.	.	.	.	.	2a\	nunc
8c#\	.	.	.	.	.	.	.	.	.	.	.	.	.
8c#\	.	.	.	.	.	.	.	.	.	.	.	.	.
8c#\J	.	.	.	.	.	.	.	.	.	.	.	.	.
=28	=28	=28	=28	=28	=28	=28	=28	=28	=28	=28	=28	=28	=28
8B\L	.	0r	.	0rc	.	0r	.	0r	.	0r	.	2dd\	et
8A\	.	.	.	.	.	.	.	.	.	.	.	.	.
8G#X\	.	.	.	.	.	.	.	.	.	.	.	.	.
8E\J	7	.	.	.	.	.	.	.	.	.	.	.	.
=29	=29	=29	=29	=29	=29	=29	=29	=29	=29	=29	=29	=29	=29
4A\	.	.	.	.	.	.	.	.	.	.	.	16cc#\LL	sem-
.	.	.	.	.	.	.	.	.	.	.	.	16b\JJ	.
.	.	.	.	.	.	.	.	.	.	.	.	8a\	-per
4C#\	6	.	.	.	.	.	.	.	.	.	.	8a\	et
.	.	.	.	.	.	.	.	.	.	.	.	8a\	in
!	!	!	!	!	!	!	!	!	!	!	!	!LO:LB:g=original	!
=30	=30	=30	=30	=30	=30	=30	=30	=30	=30	=30	=30	=30	=30
4D\	6	.	.	.	.	.	.	.	.	.	.	8b\	sae-
.	.	.	.	.	.	.	.	.	.	.	.	16f#\	-cu-
.	.	.	.	.	.	.	.	.	.	.	.	16g#X\	-la
4D#X\	.	.	.	.	.	.	.	.	.	.	.	8a\	sae-
.	.	.	.	.	.	.	.	.	.	.	.	8a\	-cu-
=31	=31	=31	=31	=31	=31	=31	=31	=31	=31	=31	=31	=31	=31
4E\	#3	.	.	.	.	.	.	.	.	.	.	16g#X\LL	-lo-
.	.	.	.	.	.	.	.	.	.	.	.	16a\JJ	.
.	.	.	.	.	.	.	.	.	.	.	.	8b\	-rum
4E\	.	.	.	.	.	.	.	.	.	.	.	8b\	sae-
.	.	.	.	.	.	.	.	.	.	.	.	8b\	-cu-
!LO:LB:g=original	!	!	!	!	!	!	!	!	!	!	!	!	!
=32	=32	=32	=32	=32	=32	=32	=32	=32	=32	=32	=32	=32	=32
4D#X\	.	0r	.	0r	.	0r	.	0r	.	0r	.	8b\L	-lo-
.	.	.	.	.	.	.	.	.	.	.	.	8a\	.
4BB\	.	.	.	.	.	.	.	.	.	.	.	8g#X\J	.
.	.	.	.	.	.	.	.	.	.	.	.	8a\	-rum
!	!	!	!	!	!	!	!	!	!	!	!	!LO:LB:g=original	!
=33	=33	=33	=33	=33	=33	=33	=33	=33	=33	=33	=33	=33	=33
8E\L	#3	.	.	.	.	.	.	.	.	.	.	4g#X\	a-
8E\	.	.	.	.	.	.	.	.	.	.	.	.	.
8E\	.	.	.	.	.	.	.	.	.	.	.	4ee\	.
8E\J	.	.	.	.	.	.	.	.	.	.	.	.	.
=34	=34	=34	=34	=34	=34	=34	=34	=34	=34	=34	=34	=34	=34
.	.	.	.	.	.	.	.	.	.	.	.	8qqee/	.
8E\L	.	.	.	.	.	.	.	.	.	.	.	8dd\L	.
.	#	.	.	.	.	.	.	.	.	.	.	.	.
8E\	.	.	.	.	.	.	.	.	.	.	.	16cc#\L	.
.	.	.	.	.	.	.	.	.	.	.	.	16b\JJ	.
8E\	.	.	.	.	.	.	.	.	.	.	.	4dd\	.
8E\J	.	.	.	.	.	.	.	.	.	.	.	.	.
=35	=35	=35	=35	=35	=35	=35	=35	=35	=35	=35	=35	=35	=35
8E\L	.	.	.	.	.	.	.	.	.	.	.	8cc#\	.
8E\	6 4	.	.	.	.	.	.	.	.	.	.	8r	.
8E\	.	.	.	.	.	.	.	.	.	.	.	4cc#\	.
8E\J	.	.	.	.	.	.	.	.	.	.	.	.	.
=36	=36	=36	=36	=36	=36	=36	=36	=36	=36	=36	=36	=36	=36
.	.	.	.	.	.	.	.	.	.	.	.	8qqcc#/	.
8E\L	#3	0r	.	0r	.	0r	.	0r	.	0r	.	8b\L	.
8E\	.	.	.	.	.	.	.	.	.	.	.	16a\L	.
.	.	.	.	.	.	.	.	.	.	.	.	16g#X\JJ	.
8E\	.	.	.	.	.	.	.	.	.	.	.	4bM\	.
8E\J	.	.	.	.	.	.	.	.	.	.	.	.	.
=37	=37	=37	=37	=37	=37	=37	=37	=37	=37	=37	=37	=37	=37
8E\L	.	.	.	.	.	.	.	.	.	.	.	8a\	.
.	6 4	.	.	.	.	.	.	.	.	.	.	.	.
8E\	.	.	.	.	.	.	.	.	.	.	.	8r	.
8E\	.	.	.	.	.	.	.	.	.	.	.	4ee\	.
8E\J	.	.	.	.	.	.	.	.	.	.	.	.	.
!LO:PB:g=original	!	!	!	!	!	!	!	!	!	!	!	!LO:LB:g=original	!
=38	=38	=38	=38	=38	=38	=38	=38	=38	=38	=38	=38	=38	=38
.	.	.	.	.	.	.	.	.	.	.	.	8qqee/	.
8E\L	.	.	.	.	.	.	.	.	.	.	.	8dd\L	.
8E\	.	.	.	.	.	.	.	.	.	.	.	16cc#\L	.
.	5 #3	.	.	.	.	.	.	.	.	.	.	16b\JJ	.
8E\	.	.	.	.	.	.	.	.	.	.	.	4dd\	.
8E\J	.	.	.	.	.	.	.	.	.	.	.	.	.
=39	=39	=39	=39	=39	=39	=39	=39	=39	=39	=39	=39	=39	=39
8E\L	.	.	.	.	.	.	.	.	.	.	.	8cc#\	.
8E\	6 4	.	.	.	.	.	.	.	.	.	.	8r	.
8E\	.	.	.	.	.	.	.	.	.	.	.	4cc#\	.
8E\J	.	.	.	.	.	.	.	.	.	.	.	.	.
=40	=40	=40	=40	=40	=40	=40	=40	=40	=40	=40	=40	=40	=40
.	.	.	.	.	.	.	.	.	.	.	.	8qqcc#/	.
8E\L	.	0r	.	0rc	.	0r	.	0r	.	1r	.	8b\L	.
8E\	.	.	.	.	.	.	.	.	.	.	.	16a\L	.
.	5 #3	.	.	.	.	.	.	.	.	.	.	16g#X\JJ	.
8E\	.	.	.	.	.	.	.	.	.	.	.	4bM\	.
8E\J	.	.	.	.	.	.	.	.	.	.	.	.	.
=41	=41	=41	=41	=41	=41	=41	=41	=41	=41	=41	=41	=41	=41
8F#\L	.	.	.	.	.	.	.	.	.	.	.	16a\LL	.
.	.	.	.	.	.	.	.	.	.	.	.	16b\	.
8F#\	.	.	.	.	.	.	.	.	.	.	.	16cc#\	.
.	.	.	.	.	.	.	.	.	.	.	.	16dd\JJ	.
8C#\	.	.	.	.	.	.	.	.	.	.	.	16ee\LL	.
.	.	.	.	.	.	.	.	.	.	.	.	16cc#\	.
8C#\J	.	.	.	.	.	.	.	.	.	.	.	16b\	.
.	.	.	.	.	.	.	.	.	.	.	.	16a\JJ	.
=42	=42	=42	=42	=42	=42	=42	=42	=42	=42	=42	=42	=42	=42
8D\L	.	.	.	.	.	.	.	.	.	2r	.	2b\	.
8D\	.	.	.	.	.	.	.	.	.	.	.	.	.
8E\	#	.	.	.	.	.	.	.	.	.	.	.	.
8E\J	.	.	.	.	.	.	.	.	.	.	.	.	.
=43	=43	=43	=43	=43	=43	=43	=43	=43	=43	=43	=43	=43	=43
!LO:TX:a:t=Al.:mod=	!	!	!	!	!	!	!	!	!	!	!LO:MO:mod=Si-	!	!
8A\L	.	.	.	.	.	.	.	.	.	4A/	si-	4a\	-men
8A\	.	.	.	.	.	.	.	.	.	.	.	.	.
8G#X\	6	.	.	.	.	.	.	.	.	4e\	-cut	4r	.
8G#\J	.	.	.	.	.	.	.	.	.	.	.	.	.
!LO:LB:g=original	!	!	!	!	!	!	!	!	!	!	!	!	!
=44	=44	=44	=44	=44	=44	=44	=44	=44	=44	=44	=44	=44	=44
!	!	!	!	!	!	!	!	!	!	!	!	!LO:TX:b:t=75:mod=	!
8F#\L	.	0r	.	0rc	.	0r	.	0r	.	8a\	e-	0r	.
8C#\	.	.	.	.	.	.	.	.	.	8e\	-rat	.	.
8D\	.	.	.	.	.	.	.	.	.	8f#\	in	.	.
8AA\J	.	.	.	.	.	.	.	.	.	8c#\	prin-	.	.
!	!	!	!	!	!	!	!	!	!	!LO:LB:g=original	!	!	!
=45	=45	=45	=45	=45	=45	=45	=45	=45	=45	=45	=45	=45	=45
8BB\L	.	.	.	.	.	.	.	.	.	4d\	-ci-	.	.
8BB\	.	.	.	.	.	.	.	.	.	.	.	.	.
8E\	#3	.	.	.	.	.	.	.	.	4e\	-pi-	.	.
8E\J	.	.	.	.	.	.	.	.	.	.	.	.	.
=46	=46	=46	=46	=46	=46	=46	=46	=46	=46	=46	=46	=46	=46
8AA\L	.	.	.	.	.	.	.	.	.	4A/	-o	.	.
16BB\L	.	.	.	.	.	.	.	.	.	.	.	.	.
16C#\JJ	.	.	.	.	.	.	.	.	.	.	.	.	.
16D\LL	.	.	.	.	.	.	.	.	.	4r	.	.	.
16E\	.	.	.	.	.	.	.	.	.	.	.	.	.
16F#\	.	.	.	.	.	.	.	.	.	.	.	.	.
16G#X\JJ	.	.	.	.	.	.	.	.	.	.	.	.	.
=47	=47	=47	=47	=47	=47	=47	=47	=47	=47	=47	=47	=47	=47
8A\L	.	.	.	.	.	.	.	.	.	2A/	et	.	.
8A\	.	.	.	.	.	.	.	.	.	.	.	.	.
8A\	.	.	.	.	.	.	.	.	.	.	.	.	.
8A\J	.	.	.	.	.	.	.	.	.	.	.	.	.
=48	=48	=48	=48	=48	=48	=48	=48	=48	=48	=48	=48	=48	=48
!	!	!	!	!	!	!	!	!	!	!LO:MO:mod=*null:null	!	!	!
*	*	*	*	*	*	*	*	*	*	*2\right	*	*	*
8G#X\L	6	0r	.	0r	.	0r	.	0r	.	2e\	nunc	0r	.
8G#\	.	.	.	.	.	.	.	.	.	.	.	.	.
8G#\	.	.	.	.	.	.	.	.	.	.	.	.	.
8G#\J	.	.	.	.	.	.	.	.	.	.	.	.	.
!LO:LB:g=original	!	!	!	!	!	!	!	!	!	!	!	!	!
=49	=49	=49	=49	=49	=49	=49	=49	=49	=49	=49	=49	=49	=49
8F#\L	#6	.	.	.	.	.	.	.	.	2a\	et	.	.
8F#\	.	.	.	.	.	.	.	.	.	.	.	.	.
8F#\	.	.	.	.	.	.	.	.	.	.	.	.	.
8F#\J	.	.	.	.	.	.	.	.	.	.	.	.	.
=50	=50	=50	=50	=50	=50	=50	=50	=50	=50	=50	=50	=50	=50
8E\L	#	.	.	.	.	.	.	.	.	16g#X\LL	sem-	.	.
.	.	.	.	.	.	.	.	.	.	16f#\JJ	.	.	.
8E\	.	.	.	.	.	.	.	.	.	8e\	-per	.	.
8E\	.	.	.	.	.	.	.	.	.	8e\	et	.	.
8E\J	.	.	.	.	.	.	.	.	.	8e\	in	.	.
!	!	!	!	!	!	!	!	!	!	!LO:LB:g=original	!	!	!
=51	=51	=51	=51	=51	=51	=51	=51	=51	=51	=51	=51	=51	=51
8AA#X/L	.	.	.	.	.	.	.	.	.	8f#\	sae-	.	.
8AA#/	6	.	.	.	.	.	.	.	.	16c#\	-cu-	.	.
.	.	.	.	.	.	.	.	.	.	16d#X\	-la	.	.
8AA#/	.	.	.	.	.	.	.	.	.	8e\	sae-	.	.
.	5	.	.	.	.	.	.	.	.	.	.	.	.
8AA#/J	.	.	.	.	.	.	.	.	.	8e\	-cu-	.	.
=52	=52	=52	=52	=52	=52	=52	=52	=52	=52	=52	=52	=52	=52
8BB/L	.	0r	.	0r	.	0r	.	0r	.	16d#X\LL	-lo-	0r	.
.	.	.	.	.	.	.	.	.	.	16e\JJ	.	.	.
*	*below	*	*	*	*	*	*	*	*	*	*	*	*
!	!	!	!	!	!	!	!	!	!	!	!LO:MO:mod=-rum	!	!
8BB/	#3	.	.	.	.	.	.	.	.	8f#\	-ru(m)	.	.
8BB/	.	.	.	.	.	.	.	.	.	8f#\	sae-	.	.
8BB/J	.	.	.	.	.	.	.	.	.	8f#\	-cu-	.	.
=53	=53	=53	=53	=53	=53	=53	=53	=53	=53	=53	=53	=53	=53
*	*above	*	*	*	*	*	*	*	*	*	*	*	*
8AA#X/L	6	.	.	.	.	.	.	.	.	8f#\L	-lo-	.	.
8AA#/	.	.	.	.	.	.	.	.	.	8c#\	.	.	.
8AA#/	5	.	.	.	.	.	.	.	.	8d#X\J	.	.	.
!	!	!	!	!	!	!	!	!	!	!	!LO:MO:mod=-rum	!	!
8AA#/J	.	.	.	.	.	.	.	.	.	8e\	-ru(m)	.	.
!LO:LB:g=original	!	!	!	!	!	!	!	!	!	!	!	!	!
=54	=54	=54	=54	=54	=54	=54	=54	=54	=54	=54	=54	=54	=54
!LO:TX:t=P:problem=mixed beam	!	!	!	!	!	!	!	!	!	!	!	!	!
8BB/L	.	.	.	.	.	.	.	.	.	4d#X\	a-	.	.
*	*below	*	*	*	*	*	*	*	*	*	*	*	*
8B\	#3	.	.	.	.	.	.	.	.	.	.	.	.
8B\	.	.	.	.	.	.	.	.	.	4b\	.	.	.
8B\J	.	.	.	.	.	.	.	.	.	.	.	.	.
!	!	!	!	!	!	!	!	!	!	!LO:LB:g=original	!	!	!
=55	=55	=55	=55	=55	=55	=55	=55	=55	=55	=55	=55	=55	=55
.	.	.	.	.	.	.	.	.	.	8qqb/	.	.	.
8B\L	.	.	.	.	.	.	.	.	.	8a\L	.	.	.
!	!	!	!	!	!	!	!	!	!	!LO:TX:t=P:problem=♯ above	!	!	!
8B\	# 7	.	.	.	.	.	.	.	.	16g#X\L	.	.	.
.	.	.	.	.	.	.	.	.	.	16f#\JJ	.	.	.
8B\	.	.	.	.	.	.	.	.	.	4a\	.	.	.
8B\J	.	.	.	.	.	.	.	.	.	.	.	.	.
=56	=56	=56	=56	=56	=56	=56	=56	=56	=56	=56	=56	=56	=56
8B\L	.	0r	.	0rc	.	0r	.	0r	.	8g#X\	.	0r	.
8B\	#6 4	.	.	.	.	.	.	.	.	8r	.	.	.
8B\	.	.	.	.	.	.	.	.	.	4g#\	.	.	.
8B\J	.	.	.	.	.	.	.	.	.	.	.	.	.
=57	=57	=57	=57	=57	=57	=57	=57	=57	=57	=57	=57	=57	=57
!	!	!	!	!	!	!	!	!	!	!LO:SIC:v:s=8qqg#	!	!	!
.	.	.	.	.	.	.	.	.	.	8qqg/	.	.	.
8B\L	.	.	.	.	.	.	.	.	.	8f#\L	.	.	.
8B\	#3	.	.	.	.	.	.	.	.	16e\L	.	.	.
.	.	.	.	.	.	.	.	.	.	16d#X\JJ	.	.	.
8B\	.	.	.	.	.	.	.	.	.	4f#\	.	.	.
8B\J	.	.	.	.	.	.	.	.	.	.	.	.	.
=58	=58	=58	=58	=58	=58	=58	=58	=58	=58	=58	=58	=58	=58
8B\L	.	.	.	.	.	.	.	.	.	8e\	.	.	.
8B\	6 4	.	.	.	.	.	.	.	.	8r	.	.	.
8B\	.	.	.	.	.	.	.	.	.	4b\	.	.	.
8B\J	.	.	.	.	.	.	.	.	.	.	.	.	.
!LO:LB:g=original	!	!	!	!	!	!	!	!	!	!	!	!	!
=59	=59	=59	=59	=59	=59	=59	=59	=59	=59	=59	=59	=59	=59
8B\L	.	.	.	.	.	.	.	.	.	8a\L	.	.	.
!	!	!	!	!	!	!	!	!	!	!LO:SIC:v:s=16g#L	!	!	!
8B\	#3	.	.	.	.	.	.	.	.	(16g\L	.	.	.
.	.	.	.	.	.	.	.	.	.	16f#\JJ)	.	.	.
!	!	!	!	!	!	!	!	!	!	!LO:SIC:v:s=4g#	!	!	!
8B\	.	.	.	.	.	.	.	.	.	4g\	.	.	.
8B\J	.	.	.	.	.	.	.	.	.	.	.	.	.
!	!	!	!	!	!	!	!	!	!	!LO:PB:g=original	!	!	!
=60	=60	=60	=60	=60	=60	=60	=60	=60	=60	=60	=60	=60	=60
8B\L	.	0r	.	0rc	.	0r	.	0r	.	8g#X\	.	0r	.
8B\	#6 4	.	.	.	.	.	.	.	.	8r	.	.	.
8B\	.	.	.	.	.	.	.	.	.	4g#\	.	.	.
8B\J	.	.	.	.	.	.	.	.	.	.	.	.	.
=61	=61	=61	=61	=61	=61	=61	=61	=61	=61	=61	=61	=61	=61
8B\L	.	.	.	.	.	.	.	.	.	8f#\L	.	.	.
!	!	!	!	!	!	!	!	!	!	!LO:SIC:s=16eL	!	!	!
8B\	.	.	.	.	.	.	.	.	.	(16e\L	.	.	.
!	!	!	!	!	!	!	!	!	!	!LO:SIC:s=16d#JJ	!	!	!
.	.	.	.	.	.	.	.	.	.	16d#X\JJ)	.	.	.
8B\	.	.	.	.	.	.	.	.	.	4f#\	.	.	.
8B\J	.	.	.	.	.	.	.	.	.	.	.	.	.
=62	=62	=62	=62	=62	=62	=62	=62	=62	=62	=62	=62	=62	=62
8G#X\L	.	.	.	.	.	.	.	.	.	16e\LL	.	.	.
.	.	.	.	.	.	.	.	.	.	16f#\	.	.	.
8G#\	.	.	.	.	.	.	.	.	.	16g#X\	.	.	.
.	.	.	.	.	.	.	.	.	.	16a\JJ	.	.	.
8G#\	.	.	.	.	.	.	.	.	.	16b\LL	.	.	.
.	.	.	.	.	.	.	.	.	.	16g#X\	.	.	.
8G#\J	.	.	.	.	.	.	.	.	.	16f#\	.	.	.
.	.	.	.	.	.	.	.	.	.	16e\JJ	.	.	.
=63	=63	=63	=63	=63	=63	=63	=63	=63	=63	=63	=63	=63	=63
8A\L	.	.	.	.	.	.	.	.	.	2f#m\	.	.	.
8A\	.	.	.	.	.	.	.	.	.	.	.	.	.
8B\	#3	.	.	.	.	.	.	.	.	.	.	.	.
8B\J	.	.	.	.	.	.	.	.	.	.	.	.	.
!LO:LB:g=original	!	!	!	!	!	!	!	!LO:LB:g=original	!	!	!	!	!
=64	=64	=64	=64	=64	=64	=64	=64	=64	=64	=64	=64	=64	=64
!!LO:TX:a:t= :mod=Tutti
!	!	!	!	!	!	!	!	!LO:MO:mod=!LO&colon;TX&colon;a&colon;t=Tutti	!	!	!	!	!
!LO:TX:a:t=Tutti:mod=	!	!	!LO:MO:mod=Si-	!	!LO:MO:mod=Si-	!	!LO:MO:mod=Si-	!null	!	!	!	!	!
2E\	#3	2E\	si-	2B\	si-	2g#X\	si-	2ee\	Si-	4e\	-men	0r	.
.	.	.	.	.	.	.	.	.	.	4r	.	.	.
!	!	!	!	!	!	!	!	!	!	!LO:LB:g=original	!	!	!
=65	=65	=65	=65	=65	=65	=65	=65	=65	=65	=65	=65	=65	=65
!	!	!	!	!	!	!LO:SIC:v:s=2g#	!	!	!	!LO:TX:b:t=50:mod=	!	!	!
2E\	#3	2E\	-cut	2B\	-cut	2g\	-cut	2ee\	-cut	0r	.	.	.
!	!	!	!	!	!	!LO:LB:g=original	!	!	!	!	!	!	!
=66	=66	=66	=66	=66	=66	=66	=66	=66	=66	=66	=66	=66	=66
4B\	.	4B\	e-	4B\	e-	4f#\	e-	4dd#X\	e-	.	.	.	.
4BB/	#3	4BB/	-rat	4B\	-rat	4f#\	-rat	4dd#\	-rat	.	.	.	.
!	!	!LO:LB:g=original	!	!LO:LB:g=original	!	!	!	!	!	!	!	!	!
=67	=67	=67	=67	=67	=67	=67	=67	=67	=67	=67	=67	=67	=67
*	*	*	*	*	*	*	*	*	*ij	*	*	*	*
!	!	!	!	!	!	!	!	!	!LO:MO:mod=si-	!	!	!	!
4B\	.	4B\	si-	4B\	si-	4f#\	si-	4dd#X\	Si-	.	.	.	.
.	#3	.	.	.	.	.	.	.	.	.	.	.	.
4B\	.	4B\	-cut	4f#\	-cut	4a\	-cut	4dd#\	-cut	.	.	.	.
=68	=68	=68	=68	=68	=68	=68	=68	=68	=68	=68	=68	=68	=68
4B\	.	4B\	e-	4f#\	e-	4a\	e-	4dd#X\	e-	.	.	0r	.
.	#3	.	.	.	.	.	.	.	.	.	.	.	.
4BB/	.	4BB/	-rat	4f#\	-rat	4a\	-rat	4dd#\	-rat	.	.	.	.
*	*	*	*	*	*	*	*	*	*Xij	*	*	*	*
=69	=69	=69	=69	=69	=69	=69	=69	=69	=69	=69	=69	=69	=69
4D#X\	.	4D#X/	in	4f#\	in	4a\	in	4dd#X\	in	0r	.	.	.
4BB\	.	4BB/	prin-	4f#\	prin-	4a\	prin-	4dd#\	prin-	.	.	.	.
!	!	!	!	!	!	!	!	!LO:LB:g=original	!	!	!	!	!
=70	=70	=70	=70	=70	=70	=70	=70	=70	=70	=70	=70	=70	=70
2E\	#3	4.E\	-ci-	4.e\	-ci-	4.g#X\	-ci-	4.ee\	-ci-	.	.	.	.
.	.	8E\	-pi-	8e\	-pi-	8g#\	-pi-	8b\	-pi-	.	.	.	.
!LO:LB:g=original	!	!	!	!	!	!LO:LB:g=original	!	!	!	!	!	!	!
=71	=71	=71	=71	=71	=71	=71	=71	=71	=71	=71	=71	=71	=71
2E\	.	4E\	-o	2e\	-o	2g#X\	-o	2b\	-o	.	.	.	.
.	.	4r	.	.	.	.	.	.	.	.	.	.	.
!	!	!LO:LB:g=original	!	!LO:PB:g=original	!	!	!	!	!	!	!	!	!
=72	=72	=72	=72	=72	=72	=72	=72	=72	=72	=72	=72	=72	=72
!	!	!	!	!LO:TX:t=P:problem=kolejność znaków F# c#	!LO:MO:mod=si-	!	!	!	!	!	!	!	!
2A\	.	2A\	si-	2e\	Si-	2a\	si-	2cc#\	si-	.	.	0r	.
=73	=73	=73	=73	=73	=73	=73	=73	=73	=73	=73	=73	=73	=73
2A\	.	2A\	-cut	2e\	-cut	2a\	-cut	2cc#\	-cut	0r	.	.	.
=74	=74	=74	=74	=74	=74	=74	=74	=74	=74	=74	=74	=74	=74
4e\	#3	4e\	e-	4e\	e-	4g#X\	e-	4b\	e-	.	.	.	.
4E\	.	4E\	-rat	4e\	-rat	4g#\	-rat	4b\	-rat	.	.	.	.
=75	=75	=75	=75	=75	=75	=75	=75	=75	=75	=75	=75	=75	=75
4e\	#3	4e\	si-	4e\	si-	4g#X\	si-	4b\	si-	.	.	.	.
4e\	.	4e\	-cut	4e\	-cut	4g#\	-cut	4b\	-cut	.	.	.	.
!	!	!	!	!	!	!LO:LB:g=original	!	!LO:LB:g=original	!	!	!	!	!
=76	=76	=76	=76	=76	=76	=76	=76	=76	=76	=76	=76	=76	=76
4e\	.	4e\	e-	4e\	e-	4g#X\	e-	4b\	e-	.	.	0r	.
4E\	.	4E\	-rat	4e\	-rat	4g#\	-rat	4b\	-rat	.	.	.	.
!	!	!LO:LB:g=original	!	!LO:LB:g=original	!	!	!	!	!	!	!	!	!
=77	=77	=77	=77	=77	=77	=77	=77	=77	=77	=77	=77	=77	=77
4G#X\	.	4G#X\	in	4e\	in	4g#X\	in	4b\	in	0r	.	.	.
4E\	.	4E\	prin-	4e\	prin-	4g#\	prin-	4b\	prin-	.	.	.	.
!LO:LB:g=original	!	!	!	!	!	!	!	!	!	!	!	!	!
=78	=78	=78	=78	=78	=78	=78	=78	=78	=78	=78	=78	=78	=78
4A\	.	4A\	-ci-	4.e\	-ci-	4.a\	-ci-	4.cc#\	-ci-	.	.	.	.
.	6	.	.	.	.	.	.	.	.	.	.	.	.
4AA/	.	4AA/	-pi-	.	.	.	.	.	.	.	.	.	.
.	.	.	.	8d\	-pi-	8b\	-pi-	8dd\	-pi-	.	.	.	.
=79	=79	=79	=79	=79	=79	=79	=79	=79	=79	=79	=79	=79	=79
4AA/	.	4AA/	-o	4c#\	-o	4cc#\	-o	4ee\	-o	.	.	.	.
4AA/	.	4r	.	4r	.	4r	.	4ee\	et	.	.	.	.
!	!	!	!	!	!	!LO:LB:g=original	!	!	!	!	!	!	!
=80	=80	=80	=80	=80	=80	=80	=80	=80	=80	=80	=80	=80	=80
!	!	!LO:TX:b:t=1:mod=	!	!LO:TX:b:t=2:mod=	!	!	!	!	!	!	!	!	!
4A\	.	2r	.	1r	.	4cc#\	et	4ee\	nunc	.	.	0r	.
4A\	.	.	.	.	.	[4a\	nunc	(8dd\L	et	.	.	.	.
.	.	.	.	.	.	.	.	8ee\J)	.	.	.	.	.
!	!	!	!	!	!	!	!	!LO:PB:g=original	!	!	!	!	!
=81	=81	=81	=81	=81	=81	=81	=81	=81	=81	=81	=81	=81	=81
4A\	.	4r	.	.	.	4a\]	.	4ff#\	nunc	0r	.	.	.
4A\	.	[4A\	et	.	.	4cc#\	et	4ee\	et	.	.	.	.
!	!	!LO:LB:g=original	!	!	!	!	!	!	!	!	!	!	!
=82	=82	=82	=82	=82	=82	=82	=82	=82	=82	=82	=82	=82	=82
4A\	4 2	4A\]	.	4f#\	et	4b\	sem-	4dd\	sem-	.	.	.	.
8G#X\L	.	8G#X\L	.	8e\L	.	4b\	-per	4dd\	-per	.	.	.	.
8A\J	.	8A\J	.	8f#\J	.	.	.	.	.	.	.	.	.
!	!	!	!	!LO:LB:g=original	!	!	!	!	!	!	!	!	!
=83	=83	=83	=83	=83	=83	=83	=83	=83	=83	=83	=83	=83	=83
4B\	#6	4B\	nunc	4g#X\	nunc	[2b\	sem-	[2dd\	sem-	.	.	.	.
4A\	.	4A\	et	4f#\	et	.	.	.	.	.	.	.	.
!LO:LB:g=original	!	!	!	!	!	!LO:LB:g=original	!	!	!	!	!	!	!
=84	=84	=84	=84	=84	=84	=84	=84	=84	=84	=84	=84	=84	=84
4G#X\	.	4G#X\	sem-	[2e\	sem-	4b\]	.	4dd\]	.	.	.	0r	.
4G#\	.	4G#\	-per	.	.	8g#X\L	-per	8ee\L	-per	.	.	.	.
.	.	.	.	.	.	8f#\J	.	8dd\J	.	.	.	.	.
=85	=85	=85	=85	=85	=85	=85	=85	=85	=85	=85	=85	=85	=85
4G#X\	.	4r	.	4e\]	.	4g#X\	et	4ee\	et	0r	.	.	.
4G#\	.	[4G#X\	sem-	4B\	-per	4b\	in	4dd\	in	.	.	.	.
!	!	!LO:LB:g=original	!	!	!	!	!	!	!	!	!	!	!
=86	=86	=86	=86	=86	=86	=86	=86	=86	=86	=86	=86	=86	=86
!	!	!	!	!LO:TX:b:t=1:mod=	!	!	!	!	!	!	!	!	!
4G#X\	.	4G#\]	.	2r	.	4.a\	sae-	4.cc#\	sae-	.	.	.	.
8F#\L	.	8F#\L	-per	.	.	.	.	.	.	.	.	.	.
8G#X\J	.	8G#X\J	.	.	.	8a\	-cu-	8cc#\	-cu	.	.	.	.
!	!	!	!	!	!	!	!	!LO:LB:g=original	!	!	!	!	!
=87	=87	=87	=87	=87	=87	=87	=87	=87	=87	=87	=87	=87	=87
4A\	.	4A\	et	2e\	et	4a\	-la	4cc#\	la	.	.	.	.
4G#X\	4	4G#X\	in	.	.	4r	.	[4cc#\	sae-	.	.	.	.
!	!	!	!	!	!	!LO:LB:g=original	!	!	!	!	!	!	!
=88	=88	=88	=88	=88	=88	=88	=88	=88	=88	=88	=88	=88	=88
*	*above	*	*	*	*	*	*	*	*	*	*	*	*
4F#\	5	2F#\	sae-	2f#\	in	4a\	sae-	4cc#\]	.	.	.	0r	.
4F#\	.	.	.	.	.	8g#X\L	-cu-	8b\L	-cu-	.	.	.	.
.	.	.	.	.	.	8a\J	.	8cc#\J	.	.	.	.	.
!LO:PB:g=original	!	!	!	!LO:LB:g=original	!	!	!	!	!	!	!	!	!
=89	=89	=89	=89	=89	=89	=89	=89	=89	=89	=89	=89	=89	=89
4Dn\	.	2D\	-cu-	4.f#\	sae-	4b\	-lo-	4dd\	-lo-	0r	.	.	.
!	!	!	!	!	!	!	!	!	!LO:MO:mod=-rum	!	!	!	!
4D\	.	.	.	.	.	4a\	-rum	4cc#\	-ru(m)	.	.	.	.
.	.	.	.	8f#\	-cu-	.	.	.	.	.	.	.	.
=90	=90	=90	=90	=90	=90	=90	=90	=90	=90	=90	=90	=90	=90
4E\	6 4	2E\	-la	2e\	-la	4a\	a-	4cc#\	a-	.	.	.	.
4E\	5 #3	.	.	.	.	4g#X\	-men	4b\	-men	.	.	.	.
!	!	!LO:LB:g=original	!	!	!	!	!	!	!	!	!	!	!
=91	=91	=91	=91	=91	=91	=91	=91	=91	=91	=91	=91	=91	=91
!	!	!LO:TX:b:t=2:mod=	!	!LO:TX:b:t=1:mod=	!	!LO:TX:b:t=1:mod=	!	!LO:SIC:v:s=2g#	!	!	!	!	!
4E\	.	1r	.	2r	.	2r	.	2g\	a-	.	.	.	.
4E\	.	.	.	.	.	.	.	.	.	.	.	.	.
!	!	!	!	!	!	!LO:LB:g=original	!	!LO:LB:g=original	!	!	!	!	!
=92	=92	=92	=92	=92	=92	=92	=92	=92	=92	=92	=92	=92	=92
2AA/	.	.	.	4c#\	sae-	2e\	a-	4a\	.	.	.	0r	.
.	.	.	.	4c#\	-cu-	.	.	[<4a\	.	.	.	.	.
=93	=93	=93	=93	=93	=93	=93	=93	=93	=93	=93	=93	=93	=93
[2A\	.	[2A\	sae-	4.c#\	-lo-	2e\	-men	4a\]	.	0r	.	.	.
.	.	.	.	.	.	.	.	8g#X\L	.	.	.	.	.
.	.	.	.	16B\LL	-rum	.	.	8a\J	.	.	.	.	.
.	.	.	.	16c#\JJ	.	.	.	.	.	.	.	.	.
!	!	!	!	!LO:LB:g=original	!	!	!	!	!	!	!	!	!
=94	=94	=94	=94	=94	=94	=94	=94	=94	=94	=94	=94	=94	=94
4A\]	.	4A\]	.	4d\	a-	4f#\	a-	4b\	.	.	.	.	.
8B\L	.	8B\L	-cu-	4B\	.	8g#X\L	.	[>4e/	.	.	.	.	.
8A\J	.	8A\J	.	.	.	8a\J	.	.	.	.	.	.	.
=95	=95	=95	=95	=95	=95	=95	=95	=95	=95	=95	=95	=95	=95
4G#X\	.	4G#X\	-lo-	2B\	-men	4b\	.	2e/]	.	.	.	.	.
4F#\	.	4F#\	-rum	.	.	4a\	.	.	.	.	.	.	.
!LO:LB:g=original	!	!	!	!	!	!	!	!	!	!	!	!	!
=96	=96	=96	=96	=96	=96	=96	=96	=96	=96	=96	=96	=96	=96
2E\	#3	2E\	a-	2e\	a-	2g#X\	.	4b\	.	.	.	0r	.
.	.	.	.	.	.	.	.	[4b\	.	.	.	.	.
!	!	!LO:LB:g=original	!	!	!	!LO:LB:g=original	!	!	!	!	!	!	!
=97	=97	=97	=97	=97	=97	=97	=97	=97	=97	=97	=97	=97	=97
*	*below	*	*	*	*	*	*	*	*	*	*	*	*
!	!	!	!	!LO:SIC:s=4.d	!	!	!	!	!	!	!	!	!
[2B\	5 n3	[2B\	.	4.dn\	.	2f#\	.	4.b\]	.	0r	.	.	.
.	.	.	.	16c#\LL	.	.	.	16a\LL	.	.	.	.	.
.	.	.	.	16d\JJ	.	.	.	16b\JJ	.	.	.	.	.
!	!	!	!	!	!	!	!	!LO:LB:g=original	!	!	!	!	!
=98	=98	=98	=98	=98	=98	=98	=98	=98	=98	=98	=98	=98	=98
4B\]	.	4B\]	.	4e\	.	4g#X\	.	4cc#\	.	.	.	.	.
8c#\L	.	8c#\L	.	4c#\	.	8a\L	.	4e/	.	.	.	.	.
8B\J	.	8B\J	.	.	.	8b\J	.	.	.	.	.	.	.
=99	=99	=99	=99	=99	=99	=99	=99	=99	=99	=99	=99	=99	=99
4A\	.	4A\	.	2c#\	.	4cc#\	.	2e/	.	.	.	.	.
4G#X\	.	4G#X\	.	.	.	4b\	.	.	.	.	.	.	.
!	!	!	!	!LO:LB:g=original	!	!	!	!	!	!	!	!	!
=100	=100	=100	=100	=100	=100	=100	=100	=100	=100	=100	=100	=100	=100
2F#\	5	2F#\	.	2f#\	.	2a\	.	4cc#\	.	.	.	0r	.
.	.	.	.	.	.	.	.	[4cc#\	.	.	.	.	.
=101	=101	=101	=101	=101	=101	=101	=101	=101	=101	=101	=101	=101	=101
!LO:SIC:s=[2c#	!	!	!	!	!	!	!	!	!	!	!	!	!
2c#\	.	[2c#\	.	4.eM\	.	2g#X\	.	4.cc#\]	.	0r	.	.	.
.	.	.	.	16d\LL	.	.	.	16b\LL	.	.	.	.	.
.	.	.	.	16e\JJ	.	.	.	16cc#\JJ	.	.	.	.	.
!	!	!LO:LB:g=original	!	!	!	!LO:PB:g=original	!	!	!	!	!	!	!
=102	=102	=102	=102	=102	=102	=102	=102	=102	=102	=102	=102	=102	=102
!LO:SIC:s=4c#]	!	!	!	!	!	!	!	!	!	!	!	!	!
4c#\	2	4c#\]	.	[2f#\	.	4a\	.	[2dd\	.	.	.	.	.
8d\L	.	8d\L	.	.	.	8b\L	.	.	.	.	.	.	.
8c#\J	.	8c#\J	.	.	.	8cc#\J	.	.	.	.	.	.	.
!LO:LB:g=original	!	!	!	!	!	!	!	!	!	!	!	!	!
=103	=103	=103	=103	=103	=103	=103	=103	=103	=103	=103	=103	=103	=103
4B\	.	4B\	.	2f#\]	.	4dd\	.	2dd\_	.	.	.	.	.
4A\	.	4A\	.	.	.	4cc#\	.	.	.	.	.	.	.
!	!	!	!	!	!	!	!	!LO:LB:g=original	!	!	!	!	!
=104	=104	=104	=104	=104	=104	=104	=104	=104	=104	=104	=104	=104	=104
4G#X\	.	4G#X\	.	[2e\	.	2b\	.	4dd\]	.	.	.	0r	.
4E\	.	[4E\	.	.	.	.	.	8cc#\L	.	.	.	.	.
.	.	.	.	.	.	.	.	8dd\J	.	.	.	.	.
=105	=105	=105	=105	=105	=105	=105	=105	=105	=105	=105	=105	=105	=105
4E\	.	4E\]	.	4e\]	.	2b\	-men	4ee\	.	0r	.	.	.
4G#X\	.	4G#X\	.	4e\	-men	.	.	4dd\	.	.	.	.	.
!	!	!LO:PB:g=original	!	!LO:LB:g=original	!	!	!	!	!	!	!	!	!
=106	=106	=106	=106	=106	=106	=106	=106	=106	=106	=106	=106	=106	=106
4A\	.	4A\	.	2e\	a-	4a\	a-	8dd\L	.	.	.	.	.
.	.	.	.	.	.	.	.	8a\	.	.	.	.	.
*	*above	*	*	*	*	*	*	*	*	*	*	*	*
4E\	#3	4E\	.	.	.	4g#X\	.	8b\	.	.	.	.	.
.	.	.	.	.	.	.	.	8dd\J	.	.	.	.	.
!	!	!	!	!	!	!LO:LB:g=original	!	!	!	!	!	!	!
=107	=107	=107	=107	=107	=107	=107	=107	=107	=107	=107	=107	=107	=107
4AA/	.	4AA/	-men	4e\	-men	4a\	-men	4cc#\	-men	.	.	.	.
4r	.	4r	.	[4a\	a-	4r	.	[4aa\	a-	.	.	.	.
!!LO:MO:ori
=108	=108	=108	=108	=108	=108	=108	=108	=108	=108	=108	=108	=108	=108
!	!	!LO:TX:b:t=1:mod=	!	!	!	!LO:TX:b:t=1:mod=	!	!	!	!	!	!	!
2C#\	.	2r	.	4a\]	.	2r	.	4aa\]	.	.	.	0r	.
.	.	.	.	4e\	.	.	.	4ee\	.	.	.	.	.
!	!	!	!	!	!	!	!	!LO:LB:g=original	!	!	!	!	!
=109	=109	=109	=109	=109	=109	=109	=109	=109	=109	=109	=109	=109	=109
4D\	.	4d\	a-	4f#\	.	4a\	a-	4ff#\	.	0r	.	.	.
4D\	.	4D\	.	8e\L	.	4a\	-men	8ee\L	.	.	.	.	.
.	.	.	.	8d\J	.	.	.	8dd\J	.	.	.	.	.
!LO:LB:g=original	!	!	!	!	!	!	!	!	!	!	!	!	!
=110	=110	=110	=110	=110	=110	=110	=110	=110	=110	=110	=110	=110	=110
!LO:TX:t=P:problem=niepotrzebnie powtórzony fragment w tt. 110-111	!	!LO:TX:t=P:problem=niepotrzebnie powtórzony fragment w org	!	!LO:TX:t=P:problem=niepotrzebnie powtórzony fragment w org	!	!LO:TX:t=P:problem=niepotrzebnie powtórzony fragment w org	!	!LO:TX:t=P:problem=niepotrzebnie powtórzony fragment w org	!	!LO:TX:t=P:problem=niepotrzebnie powtórzony fragment w org	!	!LO:TX:t=P:problem=niepotrzebnie powtórzony fragment w org	!
2C#\	.	2ryy	.	2ryy	.	2ryy	.	2ryy	.	.	.	.	.
=111	=111	=111	=111	=111	=111	=111	=111	=111	=111	=111	=111	=111	=111
4D\	.	2ryy	.	2ryy	.	2ryy	.	2ryy	.	.	.	.	.
4D\	.	.	.	.	.	.	.	.	.	.	.	.	.
=112	=112	=112	=112	=112	=112	=112	=112	=112	=112	=112	=112	=112	=112
2E\	4	2E\	.	4c#\	.	4a\	a-	4cc#\	.	.	.	0r	.
.	#3	.	.	4B\	.	4g#X\	.	4b\	.	.	.	.	.
!	!	!	!	!LO:LB:g=original	!	!	!	!	!	!	!	!	!
!!LO:MO:mod
!! =108	=108	=108	=108	=108	=108	=108	=108	=108	=108	=108	=108	=108	=108
!! 2C#\	.	2r	.	4a\]	.	2r	.	4aa\]	.	.	.	2r	.
!! .	.	.	.	4e\	.	.	.	4ee\	.	.	.	.	.
!! !	!	!	!	!	!	!	!	!LO:LB:g=original	!	!	!	!	!
!! =109	=109	=109	=109	=109	=109	=109	=109	=109	=109	=109	=109	=109	=109
!! 4D\	.	4d\	a-	4f#\	.	4a\	a-	4ff#\	.	2r	.	2r	.
!! 4D\	.	4D\	.	8e\L	.	4a\	-men	8ee\L	.	.	.	.	.
!! .	.	.	.	8d\J	.	.	.	8dd\J	.	.	.	.	.
!! !LO:LB:g=original	!	!	!	!	!	!	!	!	!	!	!	!	!
!! =112	=112	=112	=112	=112	=112	=112	=112	=112	=112	=112	=112	=112	=112
!! 2E\	4	2E\	.	4c#\	.	4a\	a-	4cc#\	.	2r	.	0r	.
!! .	#3	.	.	4B\	.	4g#X\	.	4b\	.	.	.	.	.
!! !	!	!	!	!LO:LB:g=original	!	!	!	!	!	!	!	!	!
!!LO:MO:end
=113	=113	=113	=113	=113	=113	=113	=113	=113	=113	=113	=113	=113	=113
4AA/	.	4AA/	-men	4A\	-men	4a\	-men	4a\	-men	1r	.	.	.
4r	.	4r	.	[4a\	a-	4r	.	[4aa\	a-	.	.	.	.
!	!	!LO:LB:g=original	!	!	!	!LO:LB:g=original	!	!	!	!	!	!	!
!!LO:MO:ori
=114	=114	=114	=114	=114	=114	=114	=114	=114	=114	=114	=114	=114	=114
!	!	!LO:TX:t=P:problem=brak taktów nr 112-115	!	!	!	!LO:TX:b:t=1:mod=	!	!	!	!	!	!	!
2C#/	.	2ryy	.	4a\]	.	2r	.	4aa\]	.	.	.	.	.
.	.	.	.	4e\	.	.	.	4ee\	-men	.	.	.	.
=115	=115	=115	=115	=115	=115	=115	=115	=115	=115	=115	=115	=115	=115
!	!	!	!	!	!	!	!	!	!	!LO:TX:t=P:problem=zaległe ukryte pauzy z tt. 110-111	!	!	!
4D\	.	2ryy	.	4f#\	.	4r	.	4ff#\	a-	2ryy	.	.	.
4F#\	.	.	.	8e\L	.	[4a\	a-	8ee\L	.	.	.	.	.
.	.	.	.	8d\J	.	.	.	8dd\J	.	.	.	.	.
!	!	!	!	!	!	!	!	!LO:LB:g=original	!	!	!	!	!
=116	=116	=116	=116	=116	=116	=116	=116	=116	=116	=116	=116	=116	=116
2E\	4	2ryy	.	4c#\	.	4a\]	.	4cc#\	.	2ryy	.	1r	.
.	#3	.	.	4B\	.	4g#X\	.	4b\	.	.	.	.	.
=117	=117	=117	=117	=117	=117	=117	=117	=117	=117	=117	=117	=117	=117
!	!	!	!	!	!	!	!	!	!	!LO:MO:mod=!LO&colon;TX&colon;a&colon;t=Solo	!	!	!
!LO:TX:a:t=Soli:mod=	!	!	!	!	!	!	!	!	!	!null	!	!	!
4A\	.	2ryy	.	4A\	-men	4a\	-men	4a\	-men	4e\	Si-	.	.
4r	.	.	.	4r	.	4r	.	4r	.	4e\	-cut	.	.
!LO:LB:g=original	!	!	!	!LO:LB:g=original	!	!	!	!	!	!	!	!	!
!!LO:MO:mod
!! =114	=114	=114	=114	=114	=114	=114	=114	=114	=114	=114	=114	=114	=114
!! 2C#/	.	2r	.	4a\]	.	2r	.	4aa\]	.	.	.	.	.
!! .	.	.	.	4e\	.	.	.	4ee\	-men	.	.	.	.
!! =115	=115	=115	=115	=115	=115	=115	=115	=115	=115	=115	=115	=115	=115
!! 4D\	.	4D	a-	4f#\	.	4r	.	4ff#\	a-	2ryy	.	.	.
!! 4F#\	.	4F#	.	8e\L	.	[4a\	a-	8ee\L	.	.	.	.	.
!! .	.	.	.	8d\J	.	.	.	8dd\J	.	.	.	.	.
!! !	!	!	!	!	!	!	!	!LO:LB:g=original	!	!	!	!	!
!! =116	=116	=116	=116	=116	=116	=116	=116	=116	=116	=116	=116	=116	=116
!! 2E\	4	2E	.	4c#\	.	4a\]	.	4cc#\	.	2ryy	.	1r	.
!! .	#3	.	.	4B\	.	4g#X\	.	4b\	.	.	.	.	.
!! =117	=117	=117	=117	=117	=117	=117	=117	=117	=117	=117	=117	=117	=117
!! !	!	!	!	!	!	!	!	!	!	!LO:TX:a:t=Solo	!	!	!
!! 4A\	.	4A	-men	4A\	-men	4a\	-men	4a\	-men	4e\	Si-	.	.
!! 4r	.	4r	.	4r	.	4r	.	4r	.	4e\	-cut	.	.
!! !LO:LB:g=original	!	!	!	!LO:LB:g=original	!	!	!	!	!	!	!	!	!
!!LO:MO:end
=118	=118	=118	=118	=118	=118	=118	=118	=118	=118	=118	=118	=118	=118
!	!	!LO:TX:b:t=27:mod=	!	!	!	!	!	!	!	!	!	!	!
!	!	!LO:TX:t=P:problem=wg oznaczeń 23 pauzy	!	!LO:TX:b:t=27:mod=	!	!LO:TX:b:t=27:mod=	!	!LO:TX:b:t=27:mod=	!	!	!	!	!
4A\	.	0r	.	0r	.	0r	.	0r	.	8a\L	er-	2r	.
.	.	.	.	.	.	.	.	.	.	8cc#\J	.	.	.
4A\	.	.	.	.	.	.	.	.	.	8b\L	-at	.	.
.	.	.	.	.	.	.	.	.	.	8a\J	.	.	.
=119	=119	=119	=119	=119	=119	=119	=119	=119	=119	=119	=119	=119	=119
!	!	!	!	!	!	!	!	!	!	!	!	!LO:TX:t=P:problem=zaległe ukryte pauzy z tt. 110-111	!
4F#\	.	.	.	.	.	.	.	.	.	8a\L	in	2ryy	.
.	.	.	.	.	.	.	.	.	.	8cc#\J	.	.	.
4F#\	.	.	.	.	.	.	.	.	.	8b\L	prin-	.	.
.	.	.	.	.	.	.	.	.	.	8a\J	.	.	.
!	!	!	!	!	!	!	!	!	!	!LO:LB:g=original	!	!	!
=120	=120	=120	=120	=120	=120	=120	=120	=120	=120	=120	=120	=120	=120
4G#X\	.	.	.	.	.	.	.	.	.	8b\L	-ci-	2ryy	.
.	.	.	.	.	.	.	.	.	.	8g#X\J	.	.	.
4E\	.	.	.	.	.	.	.	.	.	8e\L	-pi-	.	.
.	.	.	.	.	.	.	.	.	.	8d\J	.	.	.
!	!	!	!	!	!	!	!	!	!	!	!	!LO:LB:g=original	!
=121	=121	=121	=121	=121	=121	=121	=121	=121	=121	=121	=121	=121	=121
!	!	!	!	!	!	!	!	!	!	!	!	!LO:MO:mod=!LO&colon;TX&colon;a&colon;t=Solo	!
!	!	!	!	!	!	!	!	!	!	!	!	!null	!
4A\	.	.	.	.	.	.	.	.	.	4c#\	-o	4e/	Si-
4G#X\	6	.	.	.	.	.	.	.	.	4r	.	4e/	-cut
=122	=122	=122	=122	=122	=122	=122	=122	=122	=122	=122	=122	=122	=122
!	!	!	!	!	!	!	!	!	!	!LO:TX:b:t=3:mod=	!	!	!
4F#\	.	0r	.	0r	.	0r	.	0r	.	1r	.	8a\L	e-
.	.	.	.	.	.	.	.	.	.	.	.	8cc#\J	.
4F#\	.	.	.	.	.	.	.	.	.	.	.	8b\L	-rat
.	.	.	.	.	.	.	.	.	.	.	.	8a\J	.
=123	=123	=123	=123	=123	=123	=123	=123	=123	=123	=123	=123	=123	=123
4C#/	6	.	.	.	.	.	.	.	.	.	.	8a\L	in
.	.	.	.	.	.	.	.	.	.	.	.	8cc#\J	.
4C#/	.	.	.	.	.	.	.	.	.	.	.	8b\L	prin-
.	.	.	.	.	.	.	.	.	.	.	.	8a\J	.
=124	=124	=124	=124	=124	=124	=124	=124	=124	=124	=124	=124	=124	=124
4GG#X/	.	.	.	.	.	.	.	.	.	2r	.	8b\L	-ci-
.	.	.	.	.	.	.	.	.	.	.	.	8cc#\J	.
4GG#/	.	.	.	.	.	.	.	.	.	.	.	8dd\L	-pi-
.	.	.	.	.	.	.	.	.	.	.	.	8b\J	.
!LO:LB:g=original	!	!	!	!	!	!	!	!	!	!	!	!	!
=125	=125	=125	=125	=125	=125	=125	=125	=125	=125	=125	=125	=125	=125
8AA/L	.	.	.	.	.	.	.	.	.	4r	.	4cc#\	-o
8AA/	.	.	.	.	.	.	.	.	.	.	.	.	.
8C#/	.	.	.	.	.	.	.	.	.	[4a\	et	[4cc#\	et
*	*below	*	*	*	*	*	*	*	*	*	*	*	*
8E/J	#3	.	.	.	.	.	.	.	.	.	.	.	.
!	!	!	!	!	!	!	!	!	!	!	!	!LO:LB:g=original	!
=126	=126	=126	=126	=126	=126	=126	=126	=126	=126	=126	=126	=126	=126
4AA/	.	0r	.	0rc	.	0r	.	0r	.	8a\L]	.	8cc#\L]	.
.	.	.	.	.	.	.	.	.	.	8cc#\J	.	8ee\J	.
4AA/	.	.	.	.	.	.	.	.	.	8b\	nunc	8dd\	nunc
.	.	.	.	.	.	.	.	.	.	8a\	et	8cc#\	et
=127	=127	=127	=127	=127	=127	=127	=127	=127	=127	=127	=127	=127	=127
*	*above	*	*	*	*	*	*	*	*	*	*	*	*
4E\	#3	.	.	.	.	.	.	.	.	8g#X\L	sem-	8b\L	sem-
.	.	.	.	.	.	.	.	.	.	8f#\J	.	8a\J	.
!	!	!	!	!	!	!	!	!	!	!LO:LB:g=original	!	!	!
4E\	.	.	.	.	.	.	.	.	.	8e\L	-per	8g#X\L	-per
.	.	.	.	.	.	.	.	.	.	8f#\J	.	8a\J	.
=128	=128	=128	=128	=128	=128	=128	=128	=128	=128	=128	=128	=128	=128
4E\	.	.	.	.	.	.	.	.	.	8g#X\L	et	8b\L	et
.	.	.	.	.	.	.	.	.	.	8a\J	.	8cc#\J	.
4E\	.	.	.	.	.	.	.	.	.	8b\L	in	8dd\L	in
.	.	.	.	.	.	.	.	.	.	8g#X\J	.	8b\J	.
=129	=129	=129	=129	=129	=129	=129	=129	=129	=129	=129	=129	=129	=129
4AA/	.	.	.	.	.	.	.	.	.	4a\	sae-	4cc#\	sae-
4A\	.	.	.	.	.	.	.	.	.	4a\	-cu-	4cc#\	-cu-
!	!	!	!	!	!	!	!	!	!	!	!	!LO:LB:g=original	!
=130	=130	=130	=130	=130	=130	=130	=130	=130	=130	=130	=130	=130	=130
4A\	.	0r	.	0rc	.	0r	.	0r	.	8a\L	-la	8cc#\L	-la
.	.	.	.	.	.	.	.	.	.	8cc#\	.	8ee\	.
4A\	.	.	.	.	.	.	.	.	.	8b\	.	8dd\	.
.	.	.	.	.	.	.	.	.	.	8a\J	.	8cc#\J	.
=131	=131	=131	=131	=131	=131	=131	=131	=131	=131	=131	=131	=131	=131
!	!	!	!	!	!	!	!	!	!	!	!	!	!LO:MO:mod=sae-
4E\	#3	.	.	.	.	.	.	.	.	8g#X\L	sae-	8b\L	Sae-
.	.	.	.	.	.	.	.	.	.	8f#\J	.	8a\J	.
4E\	.	.	.	.	.	.	.	.	.	8e\L	-cu-	8g#X\L	-cu-
.	.	.	.	.	.	.	.	.	.	8f#\J	.	8a\J	.
!LO:LB:g=original	!	!	!	!	!	!	!	!	!	!LO:LB:g=original	!	!	!
=132	=132	=132	=132	=132	=132	=132	=132	=132	=132	=132	=132	=132	=132
4E\	.	.	.	.	.	.	.	.	.	8g#X\L	-lo-	8b\L	-lo-
.	.	.	.	.	.	.	.	.	.	8a\J	.	8cc#\J	.
4E\	.	.	.	.	.	.	.	.	.	8b\L	-rum	8dd\L	-rum
.	.	.	.	.	.	.	.	.	.	8g#X\J	.	8b\J	.
=133	=133	=133	=133	=133	=133	=133	=133	=133	=133	=133	=133	=133	=133
4A\	.	.	.	.	.	.	.	.	.	8a\	a-	4cc#\	a-
.	.	.	.	.	.	.	.	.	.	8a\	-men	.	.
4A\	.	.	.	.	.	.	.	.	.	4r	.	[4ee\	.
=134	=134	=134	=134	=134	=134	=134	=134	=134	=134	=134	=134	=134	=134
4C#\	.	0r	.	0r	.	0r	.	0r	.	2e\	a-	4ee\]	.
4C#\	.	.	.	.	.	.	.	.	.	.	.	8dd\L	.
.	.	.	.	.	.	.	.	.	.	.	.	8cc#\J	.
!	!	!	!	!	!	!	!	!	!	!	!	!LO:LB:g=original	!
=135	=135	=135	=135	=135	=135	=135	=135	=135	=135	=135	=135	=135	=135
.	.	.	.	.	.	.	.	.	.	.	.	8qqa/	.
4D\	.	.	.	.	.	.	.	.	.	2f#\	.	4b\	.
4D\	.	.	.	.	.	.	.	.	.	.	.	8a\L	.
.	.	.	.	.	.	.	.	.	.	.	.	8b\J	.
=136	=136	=136	=136	=136	=136	=136	=136	=136	=136	=136	=136	=136	=136
4E\	#3	.	.	.	.	.	.	.	.	2g#X\	.	8cc#\L	.
.	.	.	.	.	.	.	.	.	.	.	.	8b\	.
4E\	.	.	.	.	.	.	.	.	.	.	.	8a\	.
.	.	.	.	.	.	.	.	.	.	.	.	8g#X\J	.
=137	=137	=137	=137	=137	=137	=137	=137	=137	=137	=137	=137	=137	=137
4F#\	.	.	.	.	.	.	.	.	.	4c#\	-men	4a\	-men
4C#\	.	.	.	.	.	.	.	.	.	[4cc#\	a-	[4ee\	a-
!	!	!	!	!	!	!	!	!	!	!LO:LB:g=original	!	!	!
=138	=138	=138	=138	=138	=138	=138	=138	=138	=138	=138	=138	=138	=138
2C#\	.	1r	.	0r	.	0r	.	0r	.	4cc#\]	.	4ee\]	.
.	.	.	.	.	.	.	.	.	.	8b\L	.	8dd\L	.
.	.	.	.	.	.	.	.	.	.	8a\J	.	8cc#\J	.
=139	=139	=139	=139	=139	=139	=139	=139	=139	=139	=139	=139	=139	=139
4D\	6 5	.	.	.	.	.	.	.	.	[2a\	.	[2b\	.
4D#X\	.	.	.	.	.	.	.	.	.	.	.	.	.
!LO:LB:g=original	!	!	!	!	!	!	!	!	!	!	!	!LO:LB:g=original	!
=140	=140	=140	=140	=140	=140	=140	=140	=140	=140	=140	=140	=140	=140
4E\	.	2r	.	.	.	.	.	.	.	2a\]	.	2b\_	.
4D#X\	6 5	.	.	.	.	.	.	.	.	.	.	.	.
=141	=141	=141	=141	=141	=141	=141	=141	=141	=141	=141	=141	=141	=141
!	!	!LO:TX:t=P:problem=w tt. 141-144 ukryte pauzy [uzupełnienie zgodnie z błędnym oznaczeniem]	!	!	!	!	!	!	!	!	!	!	!
4E\	5 #3	2ryy	.	.	.	.	.	.	.	4g#X\	.	4b\]	.
4E\	.	.	.	.	.	.	.	.	.	8g#\L	.	8b\L	.
.	.	.	.	.	.	.	.	.	.	8a\J	.	8cc#\J	.
=142	=142	=142	=142	=142	=142	=142	=142	=142	=142	=142	=142	=142	=142
.	.	.	.	.	.	.	.	.	.	.	.	8qqee/	.
4E\	.	2ryy	.	1r	.	1r	.	1r	.	4b\	.	4dd\	.
4E\	.	.	.	.	.	.	.	.	.	8a\L	.	8cc#\L	.
.	.	.	.	.	.	.	.	.	.	8g#X\J	.	8b\J	.
=143	=143	=143	=143	=143	=143	=143	=143	=143	=143	=143	=143	=143	=143
!	!	!	!	!	!	!	!	!	!	!LO:TUP:a:problem=klamra łukowa	!	!	!
*	*	*	*	*	*	*	*	*	*	*	*	*Xtuplet	*
!	!	!	!	!	!	!	!	!	!	!	!	!LO:TUP:a:problem=klamra łukowa	!
4A\	.	2ryy	.	.	.	.	.	.	.	12a\L	.	12cc#\L	.
.	.	.	.	.	.	.	.	.	.	12g#X\	.	12b\	.
.	.	.	.	.	.	.	.	.	.	12a\J	.	12cc#\J	.
!	!	!	!	!	!	!	!	!	!	!LO:LB:g=original	!	!	!
!	!	!	!	!	!	!	!	!	!	!LO:TUP:a:problem=klamra łukowa	!	!LO:TUP:a:problem=klamra łukowa	!
4D\	.	.	.	.	.	.	.	.	.	12b\L	.	12dd\L	.
.	.	.	.	.	.	.	.	.	.	12a\	.	12cc#\	.
.	.	.	.	.	.	.	.	.	.	12g#\J	.	12b\J	.
=144	=144	=144	=144	=144	=144	=144	=144	=144	=144	=144	=144	=144	=144
4E\	6 4	2ryy	.	2r	.	2r	.	2r	.	4a\	.	4cc#\	.
4EE/	5 #3	.	.	.	.	.	.	.	.	4g#X\	.	4b\	.
!	!	!	!	!	!	!LO:LB:g=original	!	!	!	!	!	!LO:PB:g=original	!
=145	=145	=145	=145	=145	=145	=145	=145	=145	=145	=145	=145	=145	=145
!	!	!	!	!	!	!	!	!LO:MO:mod=!LO&colon;TX&colon;a&colon;t=Tutti	!	!	!	!	!
!LO:TX:a:t=tutti:mod=	!	!	!	!	!	!	!	!null	!	!	!	!	!
4AA/	.	4A\	si-	4e\	si-	4a\	si-	4cc#\	si-	4a\	-men	4a\	-men
4D\	.	4d\	-cut	4f#\	-cut	4a\	-cut	4dd\	-cut	4r	.	4r	.
!LO:LB:g=original	!	!	!	!	!	!	!	!	!	!	!	!	!
=146	=146	=146	=146	=146	=146	=146	=146	=146	=146	=146	=146	=146	=146
!	!	!	!	!	!	!	!	!	!	!LO:TX:b:t=17:mod=	!	!LO:TX:b:t=17:mod=	!
4C#\	.	4c#\	e-	4e\	e-	4a\	e-	4ee\	e-	0r	.	0r	.
4D\	.	4d\	-rat	4d\	-rat	4a\	-rat	4ff#\	-rat	.	.	.	.
=147	=147	=147	=147	=147	=147	=147	=147	=147	=147	=147	=147	=147	=147
4AA/	.	4A\	in	4c#\	in	4a\	in	4ee\	in	.	.	.	.
4D/	.	4d\	prin-	4d\	prin-	4a\	prin-	4ff#\	prin-	.	.	.	.
!	!	!	!	!	!	!	!	!LO:LB:g=original	!	!	!	!	!
=148	=148	=148	=148	=148	=148	=148	=148	=148	=148	=148	=148	=148	=148
4C#/	6	4c#\	-ci-	4e\	-ci-	4a\	-ci-	4ee\	-ci-	.	.	.	.
4BB/	#6	4B\	-pi-	4G#X\	-pi-	4b\	-pi-	4dd\	-pi-	.	.	.	.
!	!	!LO:LB:g=original	!	!LO:PB:g=original	!	!	!	!	!	!	!	!	!
=149	=149	=149	=149	=149	=149	=149	=149	=149	=149	=149	=149	=149	=149
!	!	!	!	!	!	!	!	!	!LO:MO:mod=-o	!	!	!	!
4AA/	.	4A\	-o	4A\	-o	4e\	-o	4cc#\	-o.	.	.	.	.
4r	.	4r	.	4r	.	4r	.	4cc#\	et	.	.	.	.
!	!	!	!	!	!	!LO:LB:g=original	!	!	!	!	!	!	!
=150	=150	=150	=150	=150	=150	=150	=150	=150	=150	=150	=150	=150	=150
2A\	.	2A\	et	2c#\	et	2a\	et	4cc#\	nunc	0r	.	0r	.
.	.	.	.	.	.	.	.	4b\	et	.	.	.	.
=151	=151	=151	=151	=151	=151	=151	=151	=151	=151	=151	=151	=151	=151
2F#\	.	2F#\	nunc	2c#\	nunc	2a\	nunc	4a\	sem-	.	.	.	.
.	.	.	.	.	.	.	.	8b\L	-per	.	.	.	.
.	.	.	.	.	.	.	.	8cc#\J	.	.	.	.	.
!LO:PB:g=original	!	!	!	!	!	!	!	!	!	!	!	!	!
=152	=152	=152	=152	=152	=152	=152	=152	=152	=152	=152	=152	=152	=152
2B\	.	2B\	et	2d\	et	2b\	et	4dd\	et	.	.	.	.
.	.	.	.	.	.	.	.	4cc#\	in	.	.	.	.
=153	=153	=153	=153	=153	=153	=153	=153	=153	=153	=153	=153	=153	=153
*	*below	*	*	*	*	*	*	*	*	*	*	*	*
2G#X\	5	2G#X\	sem-	(4d\	sem-	2b\	sem-	4b\	sae-	.	.	.	.
.	.	.	.	4B\)	.	.	.	8cc#\	-cu-	.	.	.	.
.	.	.	.	.	.	.	.	8dd\	-la	.	.	.	.
!	!	!	!	!	!	!	!	!LO:LB:g=original	!	!	!	!	!
=154	=154	=154	=154	=154	=154	=154	=154	=154	=154	=154	=154	=154	=154
2c#\	.	2c#\	-per	2e\	-per	2cc#\	-per	4ee\	sae-	0r	.	0r	.
.	.	.	.	.	.	.	.	4dd\	-cu-	.	.	.	.
!	!	!LO:LB:g=original	!	!LO:LB:g=original	!	!	!	!	!	!	!	!	!
=155	=155	=155	=155	=155	=155	=155	=155	=155	=155	=155	=155	=155	=155
2A\	.	2A\	et	(4e\	et	2cc#\	et	4cc#\	-lo-	.	.	.	.
.	.	.	.	4c#\)	.	.	.	8dd\L	-rum	.	.	.	.
.	.	.	.	.	.	.	.	8ee\J	.	.	.	.	.
!	!	!	!	!	!	!LO:LB:g=original	!	!	!	!	!	!	!
=156	=156	=156	=156	=156	=156	=156	=156	=156	=156	=156	=156	=156	=156
2d\	.	2d\	in	2A\	in	2dd\	in	4ff#\	sae-	.	.	.	.
.	.	.	.	.	.	.	.	4ee\	-cu-	.	.	.	.
=157	=157	=157	=157	=157	=157	=157	=157	=157	=157	=157	=157	=157	=157
4B\	5	4B\	sae-	4B\	sae-	2f#\	sae-	4dd\	-lo-	.	.	.	.
8c#\L	.	8c#\	-cu-	8B\	-cu-	.	.	4cc#\	-rum	.	.	.	.
8d\J	.	8d\	-la	8B\	-la	.	.	.	.	.	.	.	.
!LO:LB:g=original	!	!	!	!	!	!	!	!	!	!	!	!	!
=158	=158	=158	=158	=158	=158	=158	=158	=158	=158	=158	=158	=158	=158
4e\	#	4e\	sae-	4B\	sae-	4g#X\	.	2b\	a-	0r	.	0r	.
4d\	.	4d\	-cu-	4e\	-cu-	8g#\	-cu-	.	.	.	.	.	.
.	.	.	.	.	.	8g#\	-la	.	.	.	.	.	.
=159	=159	=159	=159	=159	=159	=159	=159	=159	=159	=159	=159	=159	=159
4c#\	.	4c#\	-lo-	8e\L	-lo-	8a\	sae-	8cc#\L	.	.	.	.	.
.	.	.	.	8d\J	.	8b\	-cu-	8dd\J	.	.	.	.	.
4A\	.	4A\	-rum	8c#\L	-rum	4cc#\	-lo-	4ee\	-men	.	.	.	.
.	.	.	.	8B\J	.	.	.	.	.	.	.	.	.
!	!	!LO:LB:g=original	!	!LO:LB:g=original	!	!	!	!LO:PB:g=original	!	!	!	!	!
=160	=160	=160	=160	=160	=160	=160	=160	=160	=160	=160	=160	=160	=160
!	!	!	!	!	!	!	!LO:MO:mod=-rum	!	!	!	!	!	!
4A\	.	2A\	a-	2A\	a-	4cc#\	-ru(m)	4ee\	a-	.	.	.	.
4AA/	.	.	.	.	.	8b\L	a-	8dd\L	.	.	.	.	.
.	.	.	.	.	.	8cc#\J	.	8ee\J	.	.	.	.	.
!	!	!	!	!	!	!LO:LB:g=original	!	!	!	!	!	!	!
=161	=161	=161	=161	=161	=161	=161	=161	=161	=161	=161	=161	=161	=161
4D\	.	2D\	.	4A\	-men	4dd\	.	4ff#\	.	.	.	.	.
4D\	.	.	.	4f#\	a-	8a\L	.	4dd\	.	.	.	.	.
.	.	.	.	.	.	8b\J	.	.	.	.	.	.	.
=162	=162	=162	=162	=162	=162	=162	=162	=162	=162	=162	=162	=162	=162
*	*above	*	*	*	*	*	*	*	*	*	*	*	*
4E\	6 4	2E\	.	2e\	.	4a\	.	4cc#\	.	2r	.	2r	.
4EE/	5 #3	.	.	.	.	4g#X\	.	4b\	.	.	.	.	.
=163	=163	=163	=163	=163	=163	=163	=163	=163	=163	=163	=163	=163	=163
!LO:TX:a:t=Soli	!	!	!	!	!	!	!	!	!	!	!	!	!
4AA/	.	4AA/	-men	4e\	-men	4a\	-men	4cc#\	-men	4r	.	4r	.
4r	.	4r	.	4r	.	4r	.	4r	.	16a\LL	a-	16cc#\LL	a-
.	.	.	.	.	.	.	.	.	.	16b\	.	16dd\	.
.	.	.	.	.	.	.	.	.	.	16cc#\	.	16ee\	.
.	.	.	.	.	.	.	.	.	.	16dd\JJ	.	16dd\JJ	.
!LO:LB:g=original	!	!	!	!	!	!	!	!	!	!LO:LB:g=original	!	!	!
=164	=164	=164	=164	=164	=164	=164	=164	=164	=164	=164	=164	=164	=164
!LO:TX:b:t=1	!	!LO:TX:b:t=6:mod=	!	!LO:TX:b:t=6:mod=	!	!LO:TX:b:t=6:mod=	!	!LO:TX:b:t=6:mod=	!	!LO:SIC:s=8a|L	!	!	!
2r	.	0r	.	0r	.	0r	.	0r	.	8a\L	.	8cc#|\L	.
!	!	!	!	!	!	!	!	!	!	!LO:SIC:s=8a|	!	!	!
.	.	.	.	.	.	.	.	.	.	8a\	.	8cc#|\	.
!	!	!	!	!	!	!	!	!	!	!LO:SIC:s=8a|	!	!	!
.	.	.	.	.	.	.	.	.	.	8a\	.	8cc#|\	.
!	!	!	!	!	!	!	!	!	!	!LO:SIC:s=8a|J	!	!	!
.	.	.	.	.	.	.	.	.	.	8a\J	.	8cc#|\J	.
!	!	!	!	!	!	!	!	!	!	!	!	!LO:LB:g=original	!
=165	=165	=165	=165	=165	=165	=165	=165	=165	=165	=165	=165	=165	=165
4A\	.	.	.	.	.	.	.	.	.	8a\	.	4cc#\	.
.	.	.	.	.	.	.	.	.	.	8r	.	.	.
4AA/	.	.	.	.	.	.	.	.	.	16a\LL	.	16cc#\LL	.
.	.	.	.	.	.	.	.	.	.	16b\	.	16dd\	.
.	.	.	.	.	.	.	.	.	.	16cc#\	.	16ee\	.
.	.	.	.	.	.	.	.	.	.	16b\JJ	.	16dd\JJ	.
=166	=166	=166	=166	=166	=166	=166	=166	=166	=166	=166	=166	=166	=166
!LO:TX:b:t=1	!	!	!	!	!	!	!	!	!	!LO:SIC:s=8a|L	!	!	!
2r	.	.	.	.	.	.	.	.	.	8a\L	.	8cc#|\L	.
!	!	!	!	!	!	!	!	!	!	!LO:SIC:s=8a|	!	!	!
.	.	.	.	.	.	.	.	.	.	8a\	.	8cc#|\	.
!	!	!	!	!	!	!	!	!	!	!LO:SIC:s=8a|	!	!	!
.	.	.	.	.	.	.	.	.	.	8a\	.	8cc#|\	.
!	!	!	!	!	!	!	!	!	!	!LO:SIC:s=8a|J	!	!	!
.	.	.	.	.	.	.	.	.	.	8a\J	.	8cc#|\J	.
=167	=167	=167	=167	=167	=167	=167	=167	=167	=167	=167	=167	=167	=167
4A\	.	.	.	.	.	.	.	.	.	8a\L	.	8cc#\L	.
.	.	.	.	.	.	.	.	.	.	8b\	.	8dd\	.
4AA/	.	.	.	.	.	.	.	.	.	8cc#\	.	8ee\	.
.	.	.	.	.	.	.	.	.	.	8dd\J	.	8ff#\J	.
!	!	!	!	!	!	!	!	!	!	!LO:LB:g=original	!	!	!
=168	=168	=168	=168	=168	=168	=168	=168	=168	=168	=168	=168	=168	=168
!LO:TX:t=P:problem=brak taktu nr 168	!	!	!	!	!	!	!	!	!	!	!	!	!
2ryy	.	1r	.	1r	.	1r	.	1r	.	8ee\L	.	8gg\L	.
.	.	.	.	.	.	.	.	.	.	8dd\	.	8ff#\	.
.	.	.	.	.	.	.	.	.	.	8cc#\	.	8ee\	.
.	.	.	.	.	.	.	.	.	.	8b\J	.	8dd\J	.
!	!	!	!	!	!	!	!	!	!	!	!	!LO:LB:g=original	!
=169	=169	=169	=169	=169	=169	=169	=169	=169	=169	=169	=169	=169	=169
4AA/	7	.	.	.	.	.	.	.	.	8a\L	.	8cc#\L	.
!	!	!	!	!	!	!	!	!	!	!LO:SIC:s=8g	!	!	!
.	.	.	.	.	.	.	.	.	.	8gn\	.	8b\	.
4AA/	.	.	.	.	.	.	.	.	.	8f#\	.	8a\	.
.	.	.	.	.	.	.	.	.	.	8e\J	.	8g\J	.
!	!	!	!	!LO:LB:g=original	!	!	!	!	!	!	!	!	!
=170	=170	=170	=170	=170	=170	=170	=170	=170	=170	=170	=170	=170	=170
!LO:TX:a:t=tutti:mod=	!	!	!	!	!	!	!	!	!	!	!	!	!
4D\	.	4D\	a-	2d\	a-	4f#\	a-	4a\	a-	4d\	-men	4f#/	-men
!LO:SIC:s=4G	!	!LO:SIC:s=4G	!	!	!	!	!	!	!	!	!	!	!
4Gn\	.	4Gn\	.	.	.	4g\	.	4b\	.	4r	.	4r	.
!LO:LB:g=original	!	!LO:LB:g=original	!	!	!	!LO:LB:g=original	!	!LO:LB:g=original	!	!	!	!	!
=171	=171	=171	=171	=171	=171	=171	=171	=171	=171	=171	=171	=171	=171
!	!	!	!	!	!	!	!	!	!	!LO:TX:b:t=4:mod=	!	!LO:TX:b:t=3:mod=	!
4F#\	.	4F#\	.	8f#\L	.	4.d\	.	4a\	.	0r	.	1r	.
.	.	.	.	8e\J	.	.	.	.	.	.	.	.	.
4G\	.	4G\	.	4d\	.	.	.	4b\	.	.	.	.	.
.	.	.	.	.	.	8e\	.	.	.	.	.	.	.
=172	=172	=172	=172	=172	=172	=172	=172	=172	=172	=172	=172	=172	=172
4D\	.	4D\	.	2d\	.	4f#\	.	4a\	.	.	.	.	.
4G\	.	4G\	.	.	.	4g\	.	4b\	.	.	.	.	.
=173	=173	=173	=173	=173	=173	=173	=173	=173	=173	=173	=173	=173	=173
4F#\	.	4F#\	.	8f#\L	.	4.d\	.	4a\	.	.	.	2r	.
.	.	.	.	8e\J	.	.	.	.	.	.	.	.	.
4G\	.	4G\	.	4d\	.	.	.	4b\	.	.	.	.	.
.	.	.	.	.	.	8e\	.	.	.	.	.	.	.
=174	=174	=174	=174	=174	=174	=174	=174	=174	=174	=174	=174	=174	=174
!LO:TX:a:t=Soli:mod=	!	!	!	!	!	!	!	!	!	!	!	!	!
4D\	.	4D/	-men	4d\	-men	4f#\	-men	4a\	-men	.	.	8r	.
.	.	.	.	.	.	.	.	.	.	.	.	8a\L	a-
4D\	.	4r	.	4r	.	4r	.	4r	.	.	.	8b\	.
.	.	.	.	.	.	.	.	.	.	.	.	8a\J	.
!	!	!	!	!LO:LB:g=original	!	!	!	!	!	!	!	!	!
=175	=175	=175	=175	=175	=175	=175	=175	=175	=175	=175	=175	=175	=175
!	!	!LO:TX:b:t=11:mod=	!	!LO:TX:b:t=11:mod=	!	!LO:TX:b:t=11:mod=	!	!LO:TX:b:t=11:mod=	!	!	!	!	!
4D\	.	0r	.	0r	.	0r	.	0r	.	8r	.	[2dd\	.
.	.	.	.	.	.	.	.	.	.	8d\L	a-	.	.
4D\	.	.	.	.	.	.	.	.	.	8e\	.	.	.
.	.	.	.	.	.	.	.	.	.	8d\J	.	.	.
!LO:LB:g=original	!	!	!	!	!	!	!	!	!	!LO:PB:g=original	!	!LO:LB:g=original	!
=176	=176	=176	=176	=176	=176	=176	=176	=176	=176	=176	=176	=176	=176
4E\	4	.	.	.	.	.	.	.	.	[2g\	.	8dd\L]	.
.	3	.	.	.	.	.	.	.	.	.	.	8cc#\	.
4E\	.	.	.	.	.	.	.	.	.	.	.	8cc#\	.
.	.	.	.	.	.	.	.	.	.	.	.	8dd\J	.
=177	=177	=177	=177	=177	=177	=177	=177	=177	=177	=177	=177	=177	=177
4E\	.	.	.	.	.	.	.	.	.	8g\L]	.	[2ee\	.
.	.	.	.	.	.	.	.	.	.	8f#\	.	.	.
4E\	.	.	.	.	.	.	.	.	.	8f#\	.	.	.
.	.	.	.	.	.	.	.	.	.	8g\J	.	.	.
=178	=178	=178	=178	=178	=178	=178	=178	=178	=178	=178	=178	=178	=178
4F#\	7	.	.	.	.	.	.	.	.	[2a\	.	8ee\L]	.
.	6	.	.	.	.	.	.	.	.	.	.	8dd\	.
4F#\	.	.	.	.	.	.	.	.	.	.	.	8dd\	.
.	.	.	.	.	.	.	.	.	.	.	.	8ee\J	.
=179	=179	=179	=179	=179	=179	=179	=179	=179	=179	=179	=179	=179	=179
!	!	!	!	!	!	!	!	!	!	!	!	!LO:SIC:s=[2ff#	!
4F#\	.	0r	.	0r	.	0r	.	0r	.	8a\L]	.	[2ff#X\	.
.	.	.	.	.	.	.	.	.	.	8g\	.	.	.
4F#\	.	.	.	.	.	.	.	.	.	8g\	.	.	.
.	.	.	.	.	.	.	.	.	.	8a\J	.	.	.
!	!	!	!	!	!	!	!	!	!	!	!	!LO:LB:g=original	!
=180	=180	=180	=180	=180	=180	=180	=180	=180	=180	=180	=180	=180	=180
!LO:SIC:s=4G	!	!	!	!	!	!	!	!	!	!	!	!	!
4Gn\	7	.	.	.	.	.	.	.	.	[2b\	.	8ff#\L]	.
.	6	.	.	.	.	.	.	.	.	.	.	8ee\	.
4G\	.	.	.	.	.	.	.	.	.	.	.	8ee\	.
.	.	.	.	.	.	.	.	.	.	.	.	8ff#\J	.
=181	=181	=181	=181	=181	=181	=181	=181	=181	=181	=181	=181	=181	=181
4G\	.	.	.	.	.	.	.	.	.	8b\L]	.	8gg\L	.
.	.	.	.	.	.	.	.	.	.	8a\	.	8ff#\	.
4G\	.	.	.	.	.	.	.	.	.	8g\	.	8ee\	.
.	.	.	.	.	.	.	.	.	.	8f#\J	.	8dd\J	.
!LO:LB:g=original	!	!	!	!	!	!	!	!	!	!LO:LB:g=original	!	!	!
=182	=182	=182	=182	=182	=182	=182	=182	=182	=182	=182	=182	=182	=182
*	*below	*	*	*	*	*	*	*	*	*	*	*	*
[2A\	5 3	.	.	.	.	.	.	.	.	4e\	.	4cc#\	.
.	.	.	.	.	.	.	.	.	.	4f#\	.	4aa\	.
=183	=183	=183	=183	=183	=183	=183	=183	=183	=183	=183	=183	=183	=183
2A\_	7	1r	.	1r	.	1r	.	1r	.	8e\L	.	8gg\L	.
.	.	.	.	.	.	.	.	.	.	8c#\J	.	8ee\J	.
.	6 4	.	.	.	.	.	.	.	.	4d\	.	4ff#\	.
!	!	!	!	!	!	!	!	!	!	!	!	!LO:LB:g=original	!
=184	=184	=184	=184	=184	=184	=184	=184	=184	=184	=184	=184	=184	=184
2A\_	5 3	.	.	.	.	.	.	.	.	4c#\	.	4ee\	.
.	6 4	.	.	.	.	.	.	.	.	4a\	.	4ff#\	.
=185	=185	=185	=185	=185	=185	=185	=185	=185	=185	=185	=185	=185	=185
2A\]	7	2r	.	2r	.	2r	.	2r	.	8g\L	.	8ee\L	.
.	.	.	.	.	.	.	.	.	.	8e\J	.	8cc#\J	.
.	6 4	.	.	.	.	.	.	.	.	4f#\	.	4dd\	.
!	!	!LO:LB:g=original	!	!	!	!LO:LB:g=original	!	!	!	!	!	!	!
=186	=186	=186	=186	=186	=186	=186	=186	=186	=186	=186	=186	=186	=186
4A\	5 3	4A\	a-	2e\	a-	[2a\	a-	2cc#\	a-	4e\	-men	4cc#\	-men
8c#\L	.	8c#\L	.	.	.	.	.	.	.	4r	.	4r	.
8A\J	.	8A\J	.	.	.	.	.	.	.	.	.	.	.
!	!	!	!	!	!	!	!	!LO:LB:g=original	!	!LO:LB:g=original	!	!	!
=187	=187	=187	=187	=187	=187	=187	=187	=187	=187	=187	=187	=187	=187
!	!	!	!	!	!	!	!	!	!	!LO:TX:b:t=3:mod=	!	!LO:TX:b:t=3:mod=	!
8d\L	.	8d\L	.	2f#\	.	2a\_	.	2dd\	.	1r	.	1r	.
8D\	.	8D\	.	.	.	.	.	.	.	.	.	.	.
8F#\	.	8F#\	.	.	.	.	.	.	.	.	.	.	.
8D\J	.	8D\J	.	.	.	.	.	.	.	.	.	.	.
!LO:LB:g=original	!	!	!	!	!	!	!	!	!	!	!	!	!
=188	=188	=188	=188	=188	=188	=188	=188	=188	=188	=188	=188	=188	=188
4A\	.	4A\	.	2e\	.	2a\_	.	2cc#\	.	.	.	.	.
8c#\L	.	8c#\L	.	.	.	.	.	.	.	.	.	.	.
8A\J	.	8A\J	.	.	.	.	.	.	.	.	.	.	.
=189	=189	=189	=189	=189	=189	=189	=189	=189	=189	=189	=189	=189	=189
8d\L	.	8d\L	.	2f#\	.	2a\]	.	2dd\	.	2r	.	2r	.
8D\	.	8D\	.	.	.	.	.	.	.	.	.	.	.
8F#\	.	8F#\	.	.	.	.	.	.	.	.	.	.	.
8G#X\J	.	8G#X\J	.	.	.	.	.	.	.	.	.	.	.
!	!	!LO:LB:g=original	!	!	!	!	!	!	!	!	!	!	!
=190	=190	=190	=190	=190	=190	=190	=190	=190	=190	=190	=190	=190	=190
!LO:TX:b:t=Soli:mod=	!	!	!	!	!	!	!	!	!	!	!	!	!
4A\	.	4A\	-men	4e\	-men	2a\	-men	2cc#\	-men	4r	.	4r	.
4A\	.	4r	.	4r	.	.	.	.	.	[4e\	a-	[4cc#\	a-
!	!	!	!	!LO:LB:g=original	!	!	!	!	!	!	!	!LO:LB:g=original	!
=191	=191	=191	=191	=191	=191	=191	=191	=191	=191	=191	=191	=191	=191
!	!	!LO:TX:b:t=4:mod=	!	!LO:TX:b:t=4:mod=	!	!LO:TX:b:t=4:mod=	!	!LO:TX:b:t=4:mod=	!	!	!	!	!
4A\	7	0r	.	0r	.	0r	.	0r	.	8e\L]	.	8cc#\L]	.
.	6 4	.	.	.	.	.	.	.	.	16f#\L	.	16dd\L	.
.	.	.	.	.	.	.	.	.	.	16g\JJ	.	16ee\JJ	.
4A\	5 3	.	.	.	.	.	.	.	.	8f#\L	.	8dd\L	.
.	.	.	.	.	.	.	.	.	.	8e\J	.	8cc#\J	.
=192	=192	=192	=192	=192	=192	=192	=192	=192	=192	=192	=192	=192	=192
4A\	6 4	.	.	.	.	.	.	.	.	4f#\	.	4dd\	.
4A\	5 3	.	.	.	.	.	.	.	.	[4e\	.	[<4cc#\	.
!LO:LB:g=original	!	!	!	!	!	!	!	!	!	!	!	!	!
=193	=193	=193	=193	=193	=193	=193	=193	=193	=193	=193	=193	=193	=193
4A\	5 3	.	.	.	.	.	.	.	.	8e\L]	.	8cc#\L]	.
.	6 4	.	.	.	.	.	.	.	.	16f#\L	.	16dd\L	.
.	.	.	.	.	.	.	.	.	.	16g\JJ	.	16ee\JJ	.
4A\	5 3	.	.	.	.	.	.	.	.	8f#\L	.	8dd\L	.
.	.	.	.	.	.	.	.	.	.	8e\J	.	8cc#\J	.
!	!	!	!	!	!	!	!	!	!	!LO:LB:g=original	!	!	!
=194	=194	=194	=194	=194	=194	=194	=194	=194	=194	=194	=194	=194	=194
4d\	.	.	.	.	.	.	.	.	.	8f#\	-men	8dd\	.
.	.	.	.	.	.	.	.	.	.	8r	.	8r	.
*	*	*	*	*	*	*	*	*	*	*tuplet	*	*tuplet	*
!	!	!	!	!	!	!	!	!	!	!LO:TUP:a:problem=klamra łukowa	!	!LO:TUP:a:problem=klamra łukowa	!
4d\	.	.	.	.	.	.	.	.	.	12f#\L	a-	12dd\L	.
.	.	.	.	.	.	.	.	.	.	12e\	.	12cc#\	.
.	.	.	.	.	.	.	.	.	.	12g\J	.	12ee\J	.
!	!	!	!	!	!	!LO:PB:g=original	!	!	!	!	!	!LO:LB:g=original	!
=195	=195	=195	=195	=195	=195	=195	=195	=195	=195	=195	=195	=195	=195
4d\	.	4r	.	4r	.	4r	.	4r	.	4f#\	-men	4dd\	-men
!LO:TX:a:t=tutti:mod=	!	!	!	!	!	!	!	!	!	!	!	!	!
*	*	*	*	*	*ij	*	*	*	*	*	*	*	*
4D\	.	4D\	a-	4d\	a-	4f#\	a-	4a\	a-	4r	.	4r	.
=196	=196	=196	=196	=196	=196	=196	=196	=196	=196	=196	=196	=196	=196
4G\	.	4G\	-men	4d\	-men	4g\	-men	4b\	-men	4r	.	4r	.
!LO:TX:a:t=Soli:mod=	!	!	!	!	!	!	!	!	!	!	!	!	!
*	*	*	*	*	*	*	*	*	*	*Xtuplet	*	*	*
!	!	!	!	!	!	!	!	!	!	!	!	!LO:TUP:a:problem=klamra łukowa	!
4G\	.	4r	.	4r	.	4r	.	4r	.	12b\L	a-	12dd\L	a-
.	.	.	.	.	.	.	.	.	.	12a\	.	12cc#\	.
.	.	.	.	.	.	.	.	.	.	12ccn\J	.	12ee\J	.
!	!	!	!	!	!	!	!	!LO:LB:g=original	!	!	!	!	!
=197	=197	=197	=197	=197	=197	=197	=197	=197	=197	=197	=197	=197	=197
4G\	.	4r	.	4r	.	4r	.	4r	.	4b\	-men	4dd\	-men
!LO:TX:a:t=tutti:mod=	!	!	!	!	!	!	!	!	!	!	!	!	!
*	*	*	*ij	*	*	*	*	*	*	*	*	*	*
4G\	.	4G\	a-	4d\	a-	4g\	a-	4b\	a-	4r	.	4r	.
!LO:LB:g=original	!	!	!	!	!	!	!	!	!	!	!	!	!
=198	=198	=198	=198	=198	=198	=198	=198	=198	=198	=198	=198	=198	=198
4D\	.	4D\	-men	4d\	-men	4f#\	-men	4a\	-men	4r	.	4r	.
!LO:TX:a:t=Soli:mod=	!	!	!	!	!	!	!	!	!	!LO:TUP:a:problem=klamra łukowa	!	!	!
*	*	*	*Xij	*	*Xij	*	*	*	*	*	*	*Xtuplet	*
4D\	.	4r	.	4r	.	4r	.	4r	.	12f#\L	a-	12dd\L	a-
.	.	.	.	.	.	.	.	.	.	12e\	.	12cc#\	.
.	.	.	.	.	.	.	.	.	.	12g\J	.	12ee\J	.
!	!	!LO:LB:g=original	!	!LO:LB:g=original	!	!	!	!	!	!LO:LB:g=original	!	!LO:LB:g=original	!
=199	=199	=199	=199	=199	=199	=199	=199	=199	=199	=199	=199	=199	=199
!	!	!LO:TX:b:t=3:mod=	!	!LO:TX:b:t=3:mod=	!	!LO:TX:b:t=3:mod=	!	!LO:TX:b:t=3:mod=	!	!	!	!	!
4D\	.	1r	.	1r	.	1r	.	1r	.	4f#\	-men	4dd\	-men
4d\	.	.	.	.	.	.	.	.	.	4f#\	a-	4a\	a-
=200	=200	=200	=200	=200	=200	=200	=200	=200	=200	=200	=200	=200	=200
4G\	.	.	.	.	.	.	.	.	.	4g\	.	4b\	.
4G\	.	.	.	.	.	.	.	.	.	4b\	.	4gg\	.
=201	=201	=201	=201	=201	=201	=201	=201	=201	=201	=201	=201	=201	=201
*	*above	*	*	*	*	*	*	*	*	*	*	*	*
4A\	6 4	2r	.	2r	.	2r	.	2r	.	8a\L	.	8ff#\L	.
.	.	.	.	.	.	.	.	.	.	8g\	.	8ee\	.
4AA/	5 3	.	.	.	.	.	.	.	.	8f#\	.	8dd\	.
.	.	.	.	.	.	.	.	.	.	8e\J	.	8cc#\J	.
!	!	!	!	!	!	!LO:LB:g=original	!	!	!	!	!	!	!
=202	=202	=202	=202	=202	=202	=202	=202	=202	=202	=202	=202	=202	=202
!LO:TX:a:t=tutti:mod=	!	!	!	!	!	!	!	!	!	!	!	!	!
4D\	.	4d\	a-	4d\	a-	4f#\	a-	4dd\	a-	4d\	-men	4dd\	-men
4r	.	4r	.	4r	.	4r	.	4r	.	4r	.	4r	.
!LO:PB:g=original	!	!	!	!	!	!	!	!	!	!	!	!	!
=203	=203	=203	=203	=203	=203	=203	=203	=203	=203	=203	=203	=203	=203
!	!	!	!	!	!	!	!	!	!	!LO:TX:b:t=3:mod=	!	!LO:TX:b:t=3:mod=	!
4BB/	.	4B\	-men	4f#\	-men	4f#\	-men	4dd\	-men	1r	.	1r	.
4r	.	4r	.	4r	.	4r	.	4r	.	.	.	.	.
=204	=204	=204	=204	=204	=204	=204	=204	=204	=204	=204	=204	=204	=204
4GG/	.	4G\	a-	4g\	a-	4b\	a-	4dd\	a-	.	.	.	.
4r	.	4r	.	4r	.	4r	.	4r	.	.	.	.	.
!	!	!	!	!	!	!	!	!LO:LB:g=original	!	!	!	!	!
=205	=205	=205	=205	=205	=205	=205	=205	=205	=205	=205	=205	=205	=205
4AA/	.	4A\	.	4e\	.	4a\	.	4cc#\	.	2r	.	2r	.
4r	.	4r	.	4r	.	4r	.	4r	.	.	.	.	.
!	!	!LO:PB:g=original	!	!LO:LB:g=original	!	!LO:LB:g=original	!	!	!	!	!	!LO:PB:g=original	!
!!LO:MO:ori
=206	=206	=206	=206	=206	=206	=206	=206	=206	=206	=206	=206	=206	=206
!	!	!LO:TX:t=P:problem=brak taktów nr 206-217	!	!	!	!	!	!	!	!	!	!	!
4D\	.	2ryy	.	4f#\	-men	4a\	-men	4dd\	-men	4r	.	4r	.
!	!	!	!	!	!	!	!	!	!	!LO:TUP:a:problem=klamra łukowa	!	!	!
*	*	*	*	*	*	*	*	*	*	*	*	*tuplet	*
!	!	!	!	!	!	!	!	!	!	!	!	!LO:TUP:a:problem=klamra łukowa	!
4r	.	.	.	4r	.	4r	.	4r	.	12f#\L	a-	12dd\L	a-
.	.	.	.	.	.	.	.	.	.	12e\	.	12cc#\	.
.	.	.	.	.	.	.	.	.	.	12g\J	.	12ee\J	.
!	!	!	!	!	!	!	!	!	!	!LO:LB:g=original	!	!	!
=207	=207	=207	=207	=207	=207	=207	=207	=207	=207	=207	=207	=207	=207
4r	.	2ryy	.	4r	.	4r	.	4r	.	4f#\	-men	4dd\	-men
*	*	*	*	*	*ij	*	*	*	*	*	*	*	*
4d\	.	.	.	4d\	a-	4f#\	a-	4a\	a-	4r	.	4r	.
=208	=208	=208	=208	=208	=208	=208	=208	=208	=208	=208	=208	=208	=208
4G\	.	2ryy	.	4d\	-men	4g\	-men	4b\	-men	4r	.	4r	.
!LO:TX:a:t=Soli:mod=	!	!	!	!	!	!	!	!	!	!	!	!	!
*	*	*	*	*	*	*	*	*	*	*	*	*Xtuplet	*
!	!	!	!	!	!	!	!	!	!	!	!	!LO:TUP:a:problem=klamra łukowa	!
4G\	.	.	.	4r	.	4r	.	4r	.	12b\L	a-	12dd\L	a-
.	.	.	.	.	.	.	.	.	.	12a\	.	12cc#\	.
.	.	.	.	.	.	.	.	.	.	12ccn\J	.	12ee\J	.
!LO:LB:g=original	!	!	!	!	!	!	!	!	!	!	!	!	!
=209	=209	=209	=209	=209	=209	=209	=209	=209	=209	=209	=209	=209	=209
4G\	.	2ryy	.	4r	.	4r	.	4r	.	4b\	-men	4dd\	-men
!LO:TX:a:t=tutti:mod=	!	!	!	!	!	!	!	!	!	!	!	!	!
*	*	*	*	*	*	*	*ij	*	*ij	*	*	*	*
4G\	.	.	.	4d\	a-	4g\	a-	4b\	a-	4r	.	4r	.
=210	=210	=210	=210	=210	=210	=210	=210	=210	=210	=210	=210	=210	=210
4D\	.	2ryy	.	4d\	-men	4f#\	-men	4a\	-men	4r	.	4r	.
*	*	*	*	*	*Xij	*	*Xij	*	*Xij	*	*	*	*
!LO:TX:a:t=Soli:mod=	!	!	!	!	!	!	!	!	!	!LO:TUP:a:problem=klamra łukowa	!	!LO:TUP:a:problem=klamra łukowa	!
4D\	.	.	.	4r	.	4r	.	4r	.	12f#\L	a-	12dd\L	a-
.	.	.	.	.	.	.	.	.	.	12e\	.	12cc#\	.
.	.	.	.	.	.	.	.	.	.	12g\J	.	12ee\J	.
!	!	!	!	!LO:LB:g=original	!	!LO:LB:g=original	!	!LO:LB:g=original	!	!	!	!LO:LB:g=original	!
=211	=211	=211	=211	=211	=211	=211	=211	=211	=211	=211	=211	=211	=211
!	!	!	!	!LO:TX:b:t=3:mod=	!	!LO:TX:b:t=3:mod=	!	!LO:TX:b:t=3:mod=	!	!	!	!	!
4D\	.	2ryy	.	1r	.	1r	.	1r	.	4f#\	-men	4dd\	-men
4d\	.	.	.	.	.	.	.	.	.	4f#\	a-	4a\	a-
!	!	!	!	!	!	!	!	!	!	!LO:LB:g=original	!	!	!
=212	=212	=212	=212	=212	=212	=212	=212	=212	=212	=212	=212	=212	=212
4B\	.	2ryy	.	.	.	.	.	.	.	4g\	.	4b\	-men
4G\	.	.	.	.	.	.	.	.	.	4b\	.	4gg\	a-
=213	=213	=213	=213	=213	=213	=213	=213	=213	=213	=213	=213	=213	=213
4A\	6 4	2ryy	.	2r	.	2r	.	2r	.	8a\L	.	8ff#\L	.
.	.	.	.	.	.	.	.	.	.	8g\	.	8ee\	.
4AA/	5 3	.	.	.	.	.	.	.	.	8f#\	.	8dd\	.
.	.	.	.	.	.	.	.	.	.	8e\J	.	8cc#\J	.
=214	=214	=214	=214	=214	=214	=214	=214	=214	=214	=214	=214	=214	=214
!!LO:TX:a:t= :mod=Tutti
!LO:TX:a:t=tutti:mod=	!	!	!	!	!	!	!	!	!	!	!	!	!
4D\	.	2ryy	.	4d\	a-	4f#\	a-	4dd\	a-	4d\	-men	4dd\	-men
4r	.	.	.	4r	.	4r	.	4r	.	4r	.	4r	.
!LO:LB:g=original	!	!	!	!	!	!	!	!	!	!	!	!	!
=215	=215	=215	=215	=215	=215	=215	=215	=215	=215	=215	=215	=215	=215
4B\	.	2ryy	.	4f#\	-men	4f#\	-men	4dd\	-men	4f#\	a-	4dd\	a-
4r	.	.	.	4r	.	4r	.	4r	.	4r	.	4r	.
!	!	!	!	!	!	!	!	!	!	!	!	!LO:LB:g=original	!
=216	=216	=216	=216	=216	=216	=216	=216	=216	=216	=216	=216	=216	=216
4G\	.	2ryy	.	4g\	a-	4b\	a-	4dd\	a-	4b\	-men	4dd\	-men
4r	.	.	.	4r	.	4r	.	4r	.	4r	.	4r	.
=217	=217	=217	=217	=217	=217	=217	=217	=217	=217	=217	=217	=217	=217
4A\	.	2ryy	.	4e\	-men	4a\	.	4cc#\	.	4a\	a-	4cc#\	a-
4r	.	.	.	4r	.	4r	.	4r	.	4r	.	4r	.
!	!	!	!	!LO:PB:g=original	!	!LO:LB:g=original	!	!	!	!LO:LB:g=original	!	!	!
!!LO:MO:mod
!! =206	=206	=206	=206	=206	=206	=206	=206	=206	=206	=206	=206	=206	=206
!! 4D\	.	4D	[-men	4f#\	-men	4a\	-men	4dd\	-men	4r	.	4r	.
!! *	*	*	*	*	*	*	*	*	*	*	*	*tuplet	*
!! 4r	.	4r	.	4r	.	4r	.	4r	.	12f#\L	a-	12dd\L	a-
!! .	.	.	.	.	.	.	.	.	.	12e\	.	12cc#\	.
!! .	.	.	.	.	.	.	.	.	.	12g\J	.	12ee\J	.
!! !	!	!	!	!	!	!	!	!	!	!LO:LB:g=original	!	!	!
!! =207	=207	=207	=207	=207	=207	=207	=207	=207	=207	=207	=207	=207	=207
!! 4r	.	4r	.	4r	.	4r	.	4r	.	4f#\	-men	4dd\	-men
!! *	*	*	*	*	*ij	*	*	*	*	*	*	*	*
!! 4d\	.	4d	a-	4d\	a-	4f#\	a-	4a\	a-	4r	.	4r	.
!! =208	=208	=208	=208	=208	=208	=208	=208	=208	=208	=208	=208	=208	=208
!! 4G\	.	4G	-men	4d\	-men	4g\	-men	4b\	-men	4r	.	4r	.
!! *	*	*	*	*	*	*	*	*	*	*	*	*Xtuplet	*
!! 4G\	.	4r	.	4r	.	4r	.	4r	.	12b\L	a-	12dd\L	a-
!! .	.	.	.	.	.	.	.	.	.	12a\	.	12cc#\	.
!! .	.	.	.	.	.	.	.	.	.	12ccn\J	.	12ee\J	.
!! !LO:LB:g=original	!	!	!	!	!	!	!	!	!	!	!	!	!
!! =209	=209	=209	=209	=209	=209	=209	=209	=209	=209	=209	=209	=209	=209
!! 4G\	.	4r	.	4r	.	4r	.	4r	.	4b\	-men	4dd\	-men
!! *	*	*	*	*	*	*	*ij	*	*ij	*	*	*	*
!! 4G\	.	4G	a-	4d\	a-	4g\	a-	4b\	a-	4r	.	4r	.
!! =210	=210	=210	=210	=210	=210	=210	=210	=210	=210	=210	=210	=210	=210
!! 4D\	.	4D	-men]	4d\	-men	4f#\	-men	4a\	-men	4r	.	4r	.
!! *	*	*	*	*	*Xij	*	*Xij	*	*Xij	*	*	*	*
!! 4D\	.	4r	.	4r	.	4r	.	4r	.	12f#\L	a-	12dd\L	a-
!! .	.	.	.	.	.	.	.	.	.	12e\	.	12cc#\	.
!! .	.	.	.	.	.	.	.	.	.	12g\J	.	12ee\J	.
!! !	!	!	!	!LO:LB:g=original	!	!LO:LB:g=original	!	!LO:LB:g=original	!	!	!	!LO:LB:g=original	!
!! =211	=211	=211	=211	=211	=211	=211	=211	=211	=211	=211	=211	=211	=211
!! 4D\	.	2r	.	1r	.	1r	.	1r	.	4f#\	-men	4dd\	-men
!! 4d\	.	.	.	.	.	.	.	.	.	4f#\	a-	4a\	a-
!! !	!	!	!	!	!	!	!	!	!	!LO:LB:g=original	!	!	!
!! =212	=212	=212	=212	=212	=212	=212	=212	=212	=212	=212	=212	=212	=212
!! 4B\	.	2r	.	.	.	.	.	.	.	4g\	.	4b\	-men
!! 4G\	.	.	.	.	.	.	.	.	.	4b\	.	4gg\	a-
!! =213	=213	=213	=213	=213	=213	=213	=213	=213	=213	=213	=213	=213	=213
!! 4A\	6 4	2r	.	2r	.	2r	.	2r	.	8a\L	.	8ff#\L	.
!! .	.	.	.	.	.	.	.	.	.	8g\	.	8ee\	.
!! 4AA/	5 3	.	.	.	.	.	.	.	.	8f#\	.	8dd\	.
!! .	.	.	.	.	.	.	.	.	.	8e\J	.	8cc#\J	.
!! =214	=214	=214	=214	=214	=214	=214	=214	=214	=214	=214	=214	=214	=214
!! !!LO:TX:a:t=Tutti
!! 4D\	.	4D	[a-	4d\	a-	4f#\	a-	4dd\	a-	4d\	-men	4dd\	-men
!! 4r	.	4r	.	4r	.	4r	.	4r	.	4r	.	4r	.
!! !LO:LB:g=original	!	!	!	!	!	!	!	!	!	!	!	!	!
!! =215	=215	=215	=215	=215	=215	=215	=215	=215	=215	=215	=215	=215	=215
!! 4B\	.	4B	-men	4f#\	-men	4f#\	-men	4dd\	-men	4f#\	a-	4dd\	a-
!! 4r	.	4r	.	4r	.	4r	.	4r	.	4r	.	4r	.
!! !	!	!	!	!	!	!	!	!	!	!	!	!LO:LB:g=original	!
!! =216	=216	=216	=216	=216	=216	=216	=216	=216	=216	=216	=216	=216	=216
!! 4G\	.	4G	a-	4g\	a-	4b\	a-	4dd\	a-	4b\	-men	4dd\	-men
!! 4r	.	4r	.	4r	.	4r	.	4r	.	4r	.	4r	.
!! =217	=217	=217	=217	=217	=217	=217	=217	=217	=217	=217	=217	=217	=217
!! 4A\	.	4A	-men]	4e\	-men	4a\	-men	4cc#\	-men	4a\	a-	4cc#\	a-
!! 4r	.	4r	.	4r	.	4r	.	4r	.	4r	.	4r	.
!! !	!	!	!	!LO:PB:g=original	!	!LO:LB:g=original	!	!	!	!LO:LB:g=original	!	!	!
!!LO:MO:end
=218	=218	=218	=218	=218	=218	=218	=218	=218	=218	=218	=218	=218	=218
!	!	!	!LO:MO:mod=a-	!	!	!	!LO:MO:mod=a-	!	!LO:MO:mod=a-	!	!	!	!
4D\	.	4D\	-men	4f#\	a-	4a\	-men	4dd\	-men	4a\	-men	4dd\	-men
!	!	!	!LO:MO:mod=.:null	!	!	!	!LO:MO:mod=.:null	!	!LO:MO:mod=.:null	!	!	!	!
4A\	.	4A\	a-	4e\	.	4a\	a-	4cc#\	a-	4a\	a-	4cc#\	a-
!	!	!	!	!	!	!	!	!LO:LB:g=original	!	!	!	!	!
=219	=219	=219	=219	=219	=219	=219	=219	=219	=219	=219	=219	=219	=219
4d\	.	4d\	-men	4d\	-men	4a\	-men	4dd\	-men	4a\	-men	4dd\	.
*	*	*	*ij	*	*	*	*ij	*	*ij	*	*	*	*
4A\	.	4A\	a-	4c#\	a-	4a\	a-	4ee\	a-	4a\	a-	4ee\	.
!LO:LB:g=original	!	!	!	!	!	!	!	!	!	!	!	!	!
=220	=220	=220	=220	=220	=220	=220	=220	=220	=220	=220	=220	=220	=220
4D\	.	4D\	-men	4d\	-men	4a\	-men	4ff#\	-men	4a\	-men	4ff#\	.
*	*	*	*	*	*ij	*	*	*	*Xij	*	*	*	*
4A\	.	4A\	a-	4e\	a-	4a\	a-	4ee\	a-	4a\	a-	4ee\	.
!	!	!	!	!	!	!	!	!	!	!	!	!LO:LB:g=original	!
=221	=221	=221	=221	=221	=221	=221	=221	=221	=221	=221	=221	=221	=221
4d\	.	4d\	-men	4f#\	-men	4a\	-men	4dd\	-men	4a\	-men	4dd\	.
*	*	*	*Xij	*	*Xij	*	*Xij	*	*ij	*	*	*	*
4A\	.	4A\	a-	4e\	a-	4a\	a-	4cc#\	a-	4a\	a-	4cc#\	.
!	!	!	!	!	!	!LO:LB:g=original	!	!	!	!	!	!	!
=222	=222	=222	=222	=222	=222	=222	=222	=222	=222	=222	=222	=222	=222
4D\	.	4D\	-men	4d\	-men	4a\	-men	4dd\	-men	4a\	-men	4dd\	-men
*	*	*	*	*	*	*	*	*	*Xij	*	*	*	*
4r	.	4r	.	4r	.	4r	.	4r	.	4r	.	4r	.
!	!	!LO:LB:g=original	!	!LO:LB:g=original	!	!	!	!	!	!LO:LB:g=original	!	!	!
=223	=223	=223	=223	=223	=223	=223	=223	=223	=223	=223	=223	=223	=223
2G\	.	2G\	a-	2d\	a-	2g\	a-	2b\	a-	2g\	a-	2dd\	a-
=224	=224	=224	=224	=224	=224	=224	=224	=224	=224	=224	=224	=224	=224
!LO:SIC:s=2D	!	!	!	!	!	!	!	!	!	!	!	!	!
2D;\	.	2D\	-men	2d\	-men	2f#\	-men	2a\	-men	2f#\	-men	2a\	-men
==	==	==	==	==	==	==	==	==	==	==	==	==	==
*-	*-	*-	*-	*-	*-	*-	*-	*-	*-	*-	*-	*-	*-
!!!system-decoration: [g1][g2]<s7>
!!!RDF**kern: > = above
!!!RDF**kern: < = below
!!!RDF**kern: | = vertical stroke
!!!filter-modern: shed -e "s/:TX:t=P:/:tx:t=p:/L" | shed -e "s/^below$/Xbelow/I" | shed -e "s/^Xtuplet$/xTUPLET/I" | shed -k -e "s/:TUP:/:tup:/L" | sic -sq | modori -m | autostem -r | tie -s | humtr -p | shed -e "s/yy//" | shed -k -e "s/[<>]//g"
!!!ENC: Andrzej Gręziak
!!!END: 2021-03-18
!!!ENC: Andrzej Kubiczek
!!!END: 2021-04-01
!!!ENC-modern: Andrzej Kubiczek
!!!END-modern: 2022-06-20
!!!YEC: Copyright 2022 Narodowy Instytut Fryderyka Chopina (https://polishscores.org)
!!!YEM: Licence CC BY 4.0 (https://creativecommons.org/licenses/by/4.0)
